; G-code generated for 6-axis toolpath
; Axes: X Y Z A B C (A,B,C = Euler ZYX in degrees)
G21 ; units in millimeters
G90 ; absolute positioning
F1500.000
G1 X0.0000 Y-0.1443 Z-9.9900 A-90.0000 B92.8376 C176.0353 F1500.000
G1 X0.1081 Y-0.0668 Z-9.9900 A-90.0000 B92.8376 C176.0353 F1500.000
G1 X0.1081 Y0.0668 Z-9.9900 A-90.0000 B95.2859 C180.0000 F1500.000
G1 X0.0000 Y0.1443 Z-9.9900 A-90.0000 B87.1624 C-176.0353 F1500.000
G1 X-0.1081 Y0.0668 Z-9.9900 A-90.0000 B84.7141 C-180.0000 F1500.000
G1 X-0.1081 Y-0.0668 Z-9.9900 A-90.0000 B84.7141 C-180.0000 F1500.000
G1 X0.0000 Y-0.1443 Z-9.9900 A-90.0000 B92.8376 C176.0353 F1500.000
G1 X0.0000 Y-1.9226 Z-9.7900 A-90.0000 B92.8435 C168.1059 F1500.000
G1 X0.6317 Y-1.7704 Z-9.7900 A-90.0000 B94.8244 C171.2100 F1500.000
G1 X1.3296 Y-1.3849 Z-9.7900 A-90.0000 B100.4447 C171.1985 F1500.000
G1 X1.6386 Y-1.0127 Z-9.7900 A-90.0000 B102.9315 C175.2077 F1500.000
G1 X1.8169 Y-0.5225 Z-9.7900 A-90.0000 B100.1320 C180.0000 F1500.000
G1 X1.8169 Y0.5225 Z-9.7900 A-90.0000 B100.1320 C180.0000 F1500.000
G1 X1.6386 Y1.0127 Z-9.7900 A-90.0000 B102.9315 C-175.2077 F1500.000
G1 X1.3296 Y1.3849 Z-9.7900 A-90.0000 B100.4447 C-171.1985 F1500.000
G1 X0.6317 Y1.7704 Z-9.7900 A-90.0000 B94.8244 C-171.2100 F1500.000
G1 X0.0000 Y1.9226 Z-9.7900 A-90.0000 B92.8435 C-168.1059 F1500.000
G1 X-0.6317 Y1.7704 Z-9.7900 A-90.0000 B85.1756 C-171.2100 F1500.000
G1 X-1.3296 Y1.3849 Z-9.7900 A-90.0000 B85.1756 C-171.2100 F1500.000
G1 X-1.6386 Y1.0127 Z-9.7900 A-90.0000 B79.5553 C-171.1985 F1500.000
G1 X-1.8169 Y0.5225 Z-9.7900 A-90.0000 B77.0685 C-175.2077 F1500.000
G1 X-1.8169 Y-0.5225 Z-9.7900 A-90.0000 B77.0685 C175.2077 F1500.000
G1 X-1.6386 Y-1.0127 Z-9.7900 A-90.0000 B77.0685 C175.2077 F1500.000
G1 X-1.3296 Y-1.3849 Z-9.7900 A-90.0000 B85.1756 C171.2100 F1500.000
G1 X-0.6317 Y-1.7704 Z-9.7900 A-90.0000 B85.1756 C171.2100 F1500.000
G1 X0.0000 Y-1.9226 Z-9.7900 A-90.0000 B92.8435 C168.1059 F1500.000
G1 X0.0000 Y-2.8142 Z-9.5900 A-90.0000 B92.8660 C160.1766 F1500.000
G1 X0.1028 Y-2.7990 Z-9.5900 A-90.0000 B94.8499 C163.0137 F1500.000
G1 X1.3259 Y-2.4438 Z-9.5900 A-90.0000 B100.4368 C162.9689 F1500.000
G1 X1.5215 Y-2.3208 Z-9.5900 A-90.0000 B100.4368 C162.9689 F1500.000
G1 X1.9549 Y-1.9232 Z-9.5900 A-90.0000 B100.4447 C171.1985 F1500.000
G1 X2.3472 Y-1.4506 Z-9.5900 A-90.0000 B102.9315 C175.2077 F1500.000
G1 X2.6506 Y-0.6168 Z-9.5900 A-90.0000 B102.9315 C175.2077 F1500.000
G1 X2.7913 Y-0.0787 Z-9.5900 A-90.0000 B110.9052 C180.0000 F1500.000
G1 X2.7913 Y0.0787 Z-9.5900 A-90.0000 B110.9052 C180.0000 F1500.000
G1 X2.6506 Y0.6168 Z-9.5900 A-90.0000 B102.9315 C-175.2077 F1500.000
G1 X2.3472 Y1.4506 Z-9.5900 A-90.0000 B100.4447 C-171.1985 F1500.000
G1 X1.9549 Y1.9232 Z-9.5900 A-90.0000 B100.4447 C-171.1985 F1500.000
G1 X1.5215 Y2.3208 Z-9.5900 A-90.0000 B100.4368 C-162.9689 F1500.000
G1 X1.3259 Y2.4438 Z-9.5900 A-90.0000 B100.4368 C-162.9689 F1500.000
G1 X0.1028 Y2.7990 Z-9.5900 A-90.0000 B92.8660 C-160.1766 F1500.000
G1 X0.0000 Y2.8142 Z-9.5900 A-90.0000 B92.8660 C-160.1766 F1500.000
G1 X-0.1028 Y2.7990 Z-9.5900 A-90.0000 B87.1340 C-160.1766 F1500.000
G1 X-1.3259 Y2.4438 Z-9.5900 A-90.0000 B85.1501 C-163.0137 F1500.000
G1 X-1.5215 Y2.3208 Z-9.5900 A-90.0000 B79.5632 C-162.9689 F1500.000
G1 X-1.9549 Y1.9232 Z-9.5900 A-90.0000 B79.5553 C-171.1985 F1500.000
G1 X-2.3472 Y1.4506 Z-9.5900 A-90.0000 B77.0685 C-175.2077 F1500.000
G1 X-2.6506 Y0.6168 Z-9.5900 A-90.0000 B77.0685 C-175.2077 F1500.000
G1 X-2.7913 Y0.0787 Z-9.5900 A-90.0000 B69.0948 C-180.0000 F1500.000
G1 X-2.7913 Y-0.0787 Z-9.5900 A-90.0000 B69.0948 C-180.0000 F1500.000
G1 X-2.6506 Y-0.6168 Z-9.5900 A-90.0000 B77.0685 C175.2077 F1500.000
G1 X-2.3472 Y-1.4506 Z-9.5900 A-90.0000 B79.5553 C171.1985 F1500.000
G1 X-1.9549 Y-1.9232 Z-9.5900 A-90.0000 B79.5553 C171.1985 F1500.000
G1 X-1.5215 Y-2.3208 Z-9.5900 A-90.0000 B77.5138 C166.0279 F1500.000
G1 X-1.3259 Y-2.4438 Z-9.5900 A-90.0000 B85.1501 C163.0137 F1500.000
G1 X-0.1028 Y-2.7990 Z-9.5900 A-90.0000 B85.1501 C163.0137 F1500.000
G1 X0.0000 Y-2.8142 Z-9.5900 A-90.0000 B92.8660 C160.1766 F1500.000
G1 X0.0000 Y-3.3690 Z-9.3900 A-90.0000 B92.8660 C160.1766 F1500.000
G1 X0.8025 Y-3.2505 Z-9.3900 A-90.0000 B92.8660 C160.1766 F1500.000
G1 X1.3205 Y-3.1001 Z-9.3900 A-90.0000 B100.4368 C162.9689 F1500.000
G1 X2.0451 Y-2.6444 Z-9.3900 A-90.0000 B102.4862 C166.0279 F1500.000
G1 X2.6329 Y-2.1053 Z-9.3900 A-90.0000 B102.4862 C166.0279 F1500.000
G1 X2.8763 Y-1.7776 Z-9.3900 A-90.0000 B107.9488 C166.0779 F1500.000
G1 X3.0617 Y-1.3708 Z-9.3900 A-90.0000 B108.1397 C175.0857 F1500.000
G1 X3.3149 Y-0.4023 Z-9.3900 A-90.0000 B108.1397 C175.0857 F1500.000
G1 X3.3149 Y0.4023 Z-9.3900 A-90.0000 B108.1397 C-175.0857 F1500.000
G1 X3.0617 Y1.3708 Z-9.3900 A-90.0000 B108.1397 C-175.0857 F1500.000
G1 X2.8763 Y1.7776 Z-9.3900 A-90.0000 B110.5232 C-170.1760 F1500.000
G1 X2.6329 Y2.1053 Z-9.3900 A-90.0000 B102.4862 C-166.0279 F1500.000
G1 X2.0451 Y2.6444 Z-9.3900 A-90.0000 B100.4368 C-162.9689 F1500.000
G1 X1.3205 Y3.1001 Z-9.3900 A-90.0000 B100.4368 C-162.9689 F1500.000
G1 X0.8025 Y3.2505 Z-9.3900 A-90.0000 B94.8499 C-163.0137 F1500.000
G1 X0.0000 Y3.3690 Z-9.3900 A-90.0000 B92.8660 C-160.1766 F1500.000
G1 X-0.8025 Y3.2505 Z-9.3900 A-90.0000 B87.1340 C-160.1766 F1500.000
G1 X-1.3205 Y3.1001 Z-9.3900 A-90.0000 B79.5632 C-162.9689 F1500.000
G1 X-2.0451 Y2.6444 Z-9.3900 A-90.0000 B77.5138 C-166.0279 F1500.000
G1 X-2.6329 Y2.1053 Z-9.3900 A-90.0000 B72.0512 C-166.0779 F1500.000
G1 X-2.8763 Y1.7776 Z-9.3900 A-90.0000 B69.4768 C-170.1760 F1500.000
G1 X-3.0617 Y1.3708 Z-9.3900 A-90.0000 B71.8603 C-175.0857 F1500.000
G1 X-3.3149 Y0.4023 Z-9.3900 A-90.0000 B69.0948 C-180.0000 F1500.000
G1 X-3.3149 Y-0.4023 Z-9.3900 A-90.0000 B69.0948 C-180.0000 F1500.000
G1 X-3.0617 Y-1.3708 Z-9.3900 A-90.0000 B71.8603 C175.0857 F1500.000
G1 X-2.8763 Y-1.7776 Z-9.3900 A-90.0000 B69.4768 C170.1760 F1500.000
G1 X-2.6329 Y-2.1053 Z-9.3900 A-90.0000 B77.5138 C166.0279 F1500.000
G1 X-2.0451 Y-2.6444 Z-9.3900 A-90.0000 B77.5138 C166.0279 F1500.000
G1 X-1.3205 Y-3.1001 Z-9.3900 A-90.0000 B85.1501 C163.0137 F1500.000
G1 X-0.8025 Y-3.2505 Z-9.3900 A-90.0000 B85.1501 C163.0137 F1500.000
G1 X0.0000 Y-3.3690 Z-9.3900 A-90.0000 B92.8660 C160.1766 F1500.000
G1 X0.0000 Y-3.9238 Z-9.1900 A-90.0000 B87.1340 C160.1766 F1500.000
G1 X0.5625 Y-3.8408 Z-9.1900 A-90.0000 B92.8660 C160.1766 F1500.000
G1 X1.3161 Y-3.6950 Z-9.1900 A-90.0000 B100.3883 C154.7717 F1500.000
G1 X1.4269 Y-3.6474 Z-9.1900 A-90.0000 B100.3883 C154.7717 F1500.000
G1 X2.1881 Y-3.2074 Z-9.1900 A-90.0000 B100.4368 C162.9689 F1500.000
G1 X2.5687 Y-2.9680 Z-9.1900 A-90.0000 B102.4862 C166.0279 F1500.000
G1 X2.6399 Y-2.9027 Z-9.1900 A-90.0000 B102.4862 C166.0279 F1500.000
G1 X3.2870 Y-2.0315 Z-9.1900 A-90.0000 B107.9488 C166.0779 F1500.000
G1 X3.7800 Y-0.9499 Z-9.1900 A-90.0000 B108.1397 C175.0857 F1500.000
G1 X3.8385 Y-0.7259 Z-9.1900 A-90.0000 B110.9052 C180.0000 F1500.000
G1 X3.8385 Y0.7259 Z-9.1900 A-90.0000 B110.9052 C180.0000 F1500.000
G1 X3.7800 Y0.9499 Z-9.1900 A-90.0000 B108.1397 C-175.0857 F1500.000
G1 X3.2870 Y2.0315 Z-9.1900 A-90.0000 B107.9488 C-166.0779 F1500.000
G1 X2.6399 Y2.9027 Z-9.1900 A-90.0000 B102.4862 C-166.0279 F1500.000
G1 X2.5687 Y2.9680 Z-9.1900 A-90.0000 B102.4862 C-166.0279 F1500.000
G1 X2.1881 Y3.2074 Z-9.1900 A-90.0000 B102.4065 C-157.6345 F1500.000
G1 X1.4269 Y3.6474 Z-9.1900 A-90.0000 B102.4065 C-157.6345 F1500.000
G1 X1.3161 Y3.6950 Z-9.1900 A-90.0000 B100.3883 C-154.7717 F1500.000
G1 X0.5625 Y3.8408 Z-9.1900 A-90.0000 B92.8660 C-160.1766 F1500.000
G1 X0.0000 Y3.9238 Z-9.1900 A-90.0000 B92.8660 C-160.1766 F1500.000
G1 X-0.5625 Y3.8408 Z-9.1900 A-90.0000 B87.1340 C-160.1766 F1500.000
G1 X-1.3161 Y3.6950 Z-9.1900 A-90.0000 B85.2924 C-154.7906 F1500.000
G1 X-1.4269 Y3.6474 Z-9.1900 A-90.0000 B77.5935 C-157.6345 F1500.000
G1 X-2.1881 Y3.2074 Z-9.1900 A-90.0000 B77.5935 C-157.6345 F1500.000
G1 X-2.5687 Y2.9680 Z-9.1900 A-90.0000 B79.5632 C-162.9689 F1500.000
G1 X-2.6399 Y2.9027 Z-9.1900 A-90.0000 B72.0512 C-166.0779 F1500.000
G1 X-3.2870 Y2.0315 Z-9.1900 A-90.0000 B72.0512 C-166.0779 F1500.000
G1 X-3.7800 Y0.9499 Z-9.1900 A-90.0000 B71.8603 C-175.0857 F1500.000
G1 X-3.8385 Y0.7259 Z-9.1900 A-90.0000 B71.8603 C-175.0857 F1500.000
G1 X-3.8385 Y-0.7259 Z-9.1900 A-90.0000 B71.8603 C175.0857 F1500.000
G1 X-3.7800 Y-0.9499 Z-9.1900 A-90.0000 B71.8603 C175.0857 F1500.000
G1 X-3.2870 Y-2.0315 Z-9.1900 A-90.0000 B69.4768 C170.1760 F1500.000
G1 X-2.6399 Y-2.9027 Z-9.1900 A-90.0000 B77.5138 C166.0279 F1500.000
G1 X-2.5687 Y-2.9680 Z-9.1900 A-90.0000 B79.5632 C162.9689 F1500.000
G1 X-2.1881 Y-3.2074 Z-9.1900 A-90.0000 B79.5632 C162.9689 F1500.000
G1 X-1.4269 Y-3.6474 Z-9.1900 A-90.0000 B77.5935 C157.6345 F1500.000
G1 X-1.3161 Y-3.6950 Z-9.1900 A-90.0000 B85.2924 C154.7906 F1500.000
G1 X-0.5625 Y-3.8408 Z-9.1900 A-90.0000 B87.1340 C160.1766 F1500.000
G1 X0.0000 Y-3.9238 Z-9.1900 A-90.0000 B87.1340 C160.1766 F1500.000
G1 X0.0000 Y-4.3385 Z-8.9900 A-90.0000 B92.8758 C152.2472 F1500.000
G1 X0.4200 Y-4.2931 Z-8.9900 A-90.0000 B94.7076 C154.7906 F1500.000
G1 X1.3146 Y-4.1202 Z-8.9900 A-90.0000 B100.3883 C154.7717 F1500.000
G1 X1.8430 Y-3.8929 Z-8.9900 A-90.0000 B100.3883 C154.7717 F1500.000
G1 X2.6273 Y-3.4395 Z-8.9900 A-90.0000 B107.8664 C157.4627 F1500.000
G1 X2.9258 Y-3.1885 Z-8.9900 A-90.0000 B110.0718 C160.5732 F1500.000
G1 X3.4751 Y-2.5850 Z-8.9900 A-90.0000 B107.9488 C166.0779 F1500.000
G1 X3.6977 Y-2.2853 Z-8.9900 A-90.0000 B110.5232 C170.1760 F1500.000
G1 X3.9107 Y-1.8181 Z-8.9900 A-90.0000 B110.5232 C170.1760 F1500.000
G1 X4.2259 Y-0.9656 Z-8.9900 A-90.0000 B115.9662 C169.6270 F1500.000
G1 X4.2790 Y-0.6386 Z-8.9900 A-90.0000 B116.2990 C180.0000 F1500.000
G1 X4.2790 Y0.6386 Z-8.9900 A-90.0000 B116.2990 C180.0000 F1500.000
G1 X4.2259 Y0.9656 Z-8.9900 A-90.0000 B118.8381 C-174.8674 F1500.000
G1 X3.9107 Y1.8181 Z-8.9900 A-90.0000 B110.5232 C-170.1760 F1500.000
G1 X3.6977 Y2.2853 Z-8.9900 A-90.0000 B110.5232 C-170.1760 F1500.000
G1 X3.4751 Y2.5850 Z-8.9900 A-90.0000 B110.0718 C-160.5732 F1500.000
G1 X2.9258 Y3.1885 Z-8.9900 A-90.0000 B107.8664 C-157.4627 F1500.000
G1 X2.6273 Y3.4395 Z-8.9900 A-90.0000 B102.4065 C-157.6345 F1500.000
G1 X1.8430 Y3.8929 Z-8.9900 A-90.0000 B102.4065 C-157.6345 F1500.000
G1 X1.3146 Y4.1202 Z-8.9900 A-90.0000 B100.3883 C-154.7717 F1500.000
G1 X0.4200 Y4.2931 Z-8.9900 A-90.0000 B92.8758 C-152.2472 F1500.000
G1 X0.0000 Y4.3385 Z-8.9900 A-90.0000 B92.8758 C-152.2472 F1500.000
G1 X-0.4200 Y4.2931 Z-8.9900 A-90.0000 B85.2924 C-154.7906 F1500.000
G1 X-1.3146 Y4.1202 Z-8.9900 A-90.0000 B85.2924 C-154.7906 F1500.000
G1 X-1.8430 Y3.8929 Z-8.9900 A-90.0000 B77.5935 C-157.6345 F1500.000
G1 X-2.6273 Y3.4395 Z-8.9900 A-90.0000 B77.5935 C-157.6345 F1500.000
G1 X-2.9258 Y3.1885 Z-8.9900 A-90.0000 B69.9282 C-160.5732 F1500.000
G1 X-3.4751 Y2.5850 Z-8.9900 A-90.0000 B69.9282 C-160.5732 F1500.000
G1 X-3.6977 Y2.2853 Z-8.9900 A-90.0000 B72.0512 C-166.0779 F1500.000
G1 X-3.9107 Y1.8181 Z-8.9900 A-90.0000 B69.4768 C-170.1760 F1500.000
G1 X-4.2259 Y0.9656 Z-8.9900 A-90.0000 B64.0338 C-169.6270 F1500.000
G1 X-4.2790 Y0.6386 Z-8.9900 A-90.0000 B63.7010 C-180.0000 F1500.000
G1 X-4.2790 Y-0.6386 Z-8.9900 A-90.0000 B63.7010 C-180.0000 F1500.000
G1 X-4.2259 Y-0.9656 Z-8.9900 A-90.0000 B64.0338 C169.6270 F1500.000
G1 X-3.9107 Y-1.8181 Z-8.9900 A-90.0000 B69.4768 C170.1760 F1500.000
G1 X-3.6977 Y-2.2853 Z-8.9900 A-90.0000 B72.0512 C166.0779 F1500.000
G1 X-3.4751 Y-2.5850 Z-8.9900 A-90.0000 B72.0512 C166.0779 F1500.000
G1 X-2.9258 Y-3.1885 Z-8.9900 A-90.0000 B72.1336 C157.4627 F1500.000
G1 X-2.6273 Y-3.4395 Z-8.9900 A-90.0000 B77.5935 C157.6345 F1500.000
G1 X-1.8430 Y-3.8929 Z-8.9900 A-90.0000 B79.6117 C154.7717 F1500.000
G1 X-1.3146 Y-4.1202 Z-8.9900 A-90.0000 B85.2924 C154.7906 F1500.000
G1 X-0.4200 Y-4.2931 Z-8.9900 A-90.0000 B87.1242 C152.2472 F1500.000
G1 X0.0000 Y-4.3385 Z-8.9900 A-90.0000 B92.8758 C152.2472 F1500.000
G1 X0.0000 Y-4.7185 Z-8.7900 A-90.0000 B92.8758 C152.2472 F1500.000
G1 X0.9436 Y-4.6167 Z-8.7900 A-90.0000 B92.8758 C152.2472 F1500.000
G1 X1.3131 Y-4.5453 Z-8.7900 A-90.0000 B100.3883 C154.7717 F1500.000
G1 X2.2591 Y-4.1384 Z-8.7900 A-90.0000 B100.3883 C154.7717 F1500.000
G1 X2.6117 Y-3.9346 Z-8.7900 A-90.0000 B107.8664 C157.4627 F1500.000
G1 X3.2563 Y-3.3925 Z-8.7900 A-90.0000 B110.0718 C160.5732 F1500.000
G1 X3.8553 Y-2.7344 Z-8.7900 A-90.0000 B110.0718 C160.5732 F1500.000
G1 X4.0285 Y-2.4898 Z-8.7900 A-90.0000 B115.2790 C160.4640 F1500.000
G1 X4.1762 Y-2.1925 Z-8.7900 A-90.0000 B115.9662 C169.6270 F1500.000
G1 X4.5546 Y-1.1692 Z-8.7900 A-90.0000 B118.8381 C174.8674 F1500.000
G1 X4.6837 Y-0.3744 Z-8.7900 A-90.0000 B118.8381 C174.8674 F1500.000
G1 X4.6837 Y0.3744 Z-8.7900 A-90.0000 B118.8381 C-174.8674 F1500.000
G1 X4.5546 Y1.1692 Z-8.7900 A-90.0000 B118.8381 C-174.8674 F1500.000
G1 X4.1762 Y2.1925 Z-8.7900 A-90.0000 B115.9662 C-169.6270 F1500.000
G1 X4.0285 Y2.4898 Z-8.7900 A-90.0000 B117.9957 C-164.6882 F1500.000
G1 X3.8553 Y2.7344 Z-8.7900 A-90.0000 B115.2790 C-160.4640 F1500.000
G1 X3.2563 Y3.3925 Z-8.7900 A-90.0000 B107.8664 C-157.4627 F1500.000
G1 X2.6117 Y3.9346 Z-8.7900 A-90.0000 B102.4065 C-157.6345 F1500.000
G1 X2.2591 Y4.1384 Z-8.7900 A-90.0000 B102.4065 C-157.6345 F1500.000
G1 X1.3131 Y4.5453 Z-8.7900 A-90.0000 B100.3883 C-154.7717 F1500.000
G1 X0.9436 Y4.6167 Z-8.7900 A-90.0000 B94.7076 C-154.7906 F1500.000
G1 X0.0000 Y4.7185 Z-8.7900 A-90.0000 B92.8758 C-152.2472 F1500.000
G1 X-0.9436 Y4.6167 Z-8.7900 A-90.0000 B85.2924 C-154.7906 F1500.000
G1 X-1.3131 Y4.5453 Z-8.7900 A-90.0000 B85.2924 C-154.7906 F1500.000
G1 X-2.2591 Y4.1384 Z-8.7900 A-90.0000 B79.6117 C-154.7717 F1500.000
G1 X-2.6117 Y3.9346 Z-8.7900 A-90.0000 B77.5935 C-157.6345 F1500.000
G1 X-3.2563 Y3.3925 Z-8.7900 A-90.0000 B72.1336 C-157.4627 F1500.000
G1 X-3.8553 Y2.7344 Z-8.7900 A-90.0000 B69.9282 C-160.5732 F1500.000
G1 X-4.0285 Y2.4898 Z-8.7900 A-90.0000 B64.7210 C-160.4640 F1500.000
G1 X-4.1762 Y2.1925 Z-8.7900 A-90.0000 B62.0043 C-164.6882 F1500.000
G1 X-4.5546 Y1.1692 Z-8.7900 A-90.0000 B61.1619 C-174.8674 F1500.000
G1 X-4.6837 Y0.3744 Z-8.7900 A-90.0000 B61.1619 C-174.8674 F1500.000
G1 X-4.6837 Y-0.3744 Z-8.7900 A-90.0000 B61.1619 C174.8674 F1500.000
G1 X-4.5546 Y-1.1692 Z-8.7900 A-90.0000 B64.0338 C169.6270 F1500.000
G1 X-4.1762 Y-2.1925 Z-8.7900 A-90.0000 B62.0043 C164.6882 F1500.000
G1 X-4.0285 Y-2.4898 Z-8.7900 A-90.0000 B64.7210 C160.4640 F1500.000
G1 X-3.8553 Y-2.7344 Z-8.7900 A-90.0000 B69.9282 C160.5732 F1500.000
G1 X-3.2563 Y-3.3925 Z-8.7900 A-90.0000 B72.1336 C157.4627 F1500.000
G1 X-2.6117 Y-3.9346 Z-8.7900 A-90.0000 B77.5935 C157.6345 F1500.000
G1 X-2.2591 Y-4.1384 Z-8.7900 A-90.0000 B77.5935 C157.6345 F1500.000
G1 X-1.3131 Y-4.5453 Z-8.7900 A-90.0000 B85.2924 C154.7906 F1500.000
G1 X-0.9436 Y-4.6167 Z-8.7900 A-90.0000 B85.2924 C154.7906 F1500.000
G1 X0.0000 Y-4.7185 Z-8.7900 A-90.0000 B92.8758 C152.2472 F1500.000
G1 X0.0000 Y-5.0986 Z-8.5900 A-90.0000 B87.1242 C152.2472 F1500.000
G1 X0.7672 Y-5.0159 Z-8.5900 A-90.0000 B94.6563 C146.7661 F1500.000
G1 X1.2754 Y-4.9404 Z-8.5900 A-90.0000 B97.6310 C145.7875 F1500.000
G1 X1.3791 Y-4.9156 Z-8.5900 A-90.0000 B102.1939 C149.2238 F1500.000
G1 X2.5744 Y-4.4109 Z-8.5900 A-90.0000 B102.1939 C149.2238 F1500.000
G1 X2.6389 Y-4.3770 Z-8.5900 A-90.0000 B109.7220 C151.7836 F1500.000
G1 X2.8409 Y-4.2238 Z-8.5900 A-90.0000 B107.8664 C157.4627 F1500.000
G1 X3.5868 Y-3.5965 Z-8.5900 A-90.0000 B107.8664 C157.4627 F1500.000
G1 X3.8444 Y-3.3135 Z-8.5900 A-90.0000 B110.0718 C160.5732 F1500.000
G1 X4.3062 Y-2.6614 Z-8.5900 A-90.0000 B115.2790 C160.4640 F1500.000
G1 X4.6998 Y-1.8689 Z-8.5900 A-90.0000 B115.9662 C169.6270 F1500.000
G1 X4.8833 Y-1.3727 Z-8.5900 A-90.0000 B115.9662 C169.6270 F1500.000
G1 X5.0884 Y-0.1103 Z-8.5900 A-90.0000 B116.2990 C180.0000 F1500.000
G1 X5.0884 Y0.1103 Z-8.5900 A-90.0000 B116.2990 C180.0000 F1500.000
G1 X4.8833 Y1.3727 Z-8.5900 A-90.0000 B115.9662 C-169.6270 F1500.000
G1 X4.6998 Y1.8689 Z-8.5900 A-90.0000 B115.9662 C-169.6270 F1500.000
G1 X4.3062 Y2.6614 Z-8.5900 A-90.0000 B115.2790 C-160.4640 F1500.000
G1 X3.8444 Y3.3135 Z-8.5900 A-90.0000 B115.2790 C-160.4640 F1500.000
G1 X3.5868 Y3.5965 Z-8.5900 A-90.0000 B107.8664 C-157.4627 F1500.000
G1 X2.8409 Y4.2238 Z-8.5900 A-90.0000 B107.8664 C-157.4627 F1500.000
G1 X2.6389 Y4.3770 Z-8.5900 A-90.0000 B105.4917 C-148.1570 F1500.000
G1 X2.5744 Y4.4109 Z-8.5900 A-90.0000 B102.1939 C-149.2238 F1500.000
G1 X1.3791 Y4.9156 Z-8.5900 A-90.0000 B102.1939 C-149.2238 F1500.000
G1 X1.2754 Y4.9404 Z-8.5900 A-90.0000 B97.6310 C-145.7875 F1500.000
G1 X0.7672 Y5.0159 Z-8.5900 A-90.0000 B94.6563 C-146.7661 F1500.000
G1 X0.0000 Y5.0986 Z-8.5900 A-90.0000 B87.1242 C-152.2472 F1500.000
G1 X-0.7672 Y5.0159 Z-8.5900 A-90.0000 B87.1242 C-152.2472 F1500.000
G1 X-1.2754 Y4.9404 Z-8.5900 A-90.0000 B85.3437 C-146.7661 F1500.000
G1 X-1.3791 Y4.9156 Z-8.5900 A-90.0000 B77.8061 C-149.2238 F1500.000
G1 X-2.5744 Y4.4109 Z-8.5900 A-90.0000 B77.8061 C-149.2238 F1500.000
G1 X-2.6389 Y4.3770 Z-8.5900 A-90.0000 B70.2780 C-151.7836 F1500.000
G1 X-2.8409 Y4.2238 Z-8.5900 A-90.0000 B72.1336 C-157.4627 F1500.000
G1 X-3.5868 Y3.5965 Z-8.5900 A-90.0000 B69.9282 C-160.5732 F1500.000
G1 X-3.8444 Y3.3135 Z-8.5900 A-90.0000 B69.9282 C-160.5732 F1500.000
G1 X-4.3062 Y2.6614 Z-8.5900 A-90.0000 B62.0043 C-164.6882 F1500.000
G1 X-4.6998 Y1.8689 Z-8.5900 A-90.0000 B64.0338 C-169.6270 F1500.000
G1 X-4.8833 Y1.3727 Z-8.5900 A-90.0000 B64.0338 C-169.6270 F1500.000
G1 X-5.0884 Y0.1103 Z-8.5900 A-90.0000 B63.7010 C-180.0000 F1500.000
G1 X-5.0884 Y-0.1103 Z-8.5900 A-90.0000 B63.7010 C-180.0000 F1500.000
G1 X-4.8833 Y-1.3727 Z-8.5900 A-90.0000 B61.1619 C174.8674 F1500.000
G1 X-4.6998 Y-1.8689 Z-8.5900 A-90.0000 B62.0043 C164.6882 F1500.000
G1 X-4.3062 Y-2.6614 Z-8.5900 A-90.0000 B62.0043 C164.6882 F1500.000
G1 X-3.8444 Y-3.3135 Z-8.5900 A-90.0000 B69.9282 C160.5732 F1500.000
G1 X-3.5868 Y-3.5965 Z-8.5900 A-90.0000 B69.9282 C160.5732 F1500.000
G1 X-2.8409 Y-4.2238 Z-8.5900 A-90.0000 B72.1336 C157.4627 F1500.000
G1 X-2.6389 Y-4.3770 Z-8.5900 A-90.0000 B70.2780 C151.7836 F1500.000
G1 X-2.5744 Y-4.4109 Z-8.5900 A-90.0000 B77.8061 C149.2238 F1500.000
G1 X-1.3791 Y-4.9156 Z-8.5900 A-90.0000 B77.8061 C149.2238 F1500.000
G1 X-1.2754 Y-4.9404 Z-8.5900 A-90.0000 B82.3690 C145.7875 F1500.000
G1 X-0.7672 Y-5.0159 Z-8.5900 A-90.0000 B87.1242 C152.2472 F1500.000
G1 X0.0000 Y-5.0986 Z-8.5900 A-90.0000 B87.1242 C152.2472 F1500.000
G1 X-0.1414 Y-5.4141 Z-8.3900 A-90.0000 B85.3437 C146.7661 F1500.000
G1 X0.1414 Y-5.4141 Z-8.3900 A-90.0000 B94.6563 C146.7661 F1500.000
G1 X1.1518 Y-5.2640 Z-8.3900 A-90.0000 B97.6310 C145.7875 F1500.000
G1 X1.6055 Y-5.1558 Z-8.3900 A-90.0000 B102.1939 C149.2238 F1500.000
G1 X2.4405 Y-4.8032 Z-8.3900 A-90.0000 B102.1939 C149.2238 F1500.000
G1 X2.8567 Y-4.5846 Z-8.3900 A-90.0000 B109.7220 C151.7836 F1500.000
G1 X3.8057 Y-3.8650 Z-8.3900 A-90.0000 B109.7220 C151.7836 F1500.000
G1 X3.8846 Y-3.7955 Z-8.3900 A-90.0000 B117.2337 C154.5221 F1500.000
G1 X4.0000 Y-3.6575 Z-8.3900 A-90.0000 B117.2337 C154.5221 F1500.000
G1 X4.5838 Y-2.8329 Z-8.3900 A-90.0000 B117.9957 C164.6882 F1500.000
G1 X5.1853 Y-1.6220 Z-8.3900 A-90.0000 B117.9957 C164.6882 F1500.000
G1 X5.2052 Y-1.5760 Z-8.3900 A-90.0000 B126.1271 C168.5654 F1500.000
G1 X5.2124 Y-1.5496 Z-8.3900 A-90.0000 B123.4797 C174.6053 F1500.000
G1 X5.4136 Y-0.1342 Z-8.3900 A-90.0000 B123.4797 C174.6053 F1500.000
G1 X5.4136 Y0.1342 Z-8.3900 A-90.0000 B126.7008 C180.0000 F1500.000
G1 X5.2124 Y1.5496 Z-8.3900 A-90.0000 B123.4797 C-174.6053 F1500.000
G1 X5.2052 Y1.5760 Z-8.3900 A-90.0000 B126.1271 C-168.5654 F1500.000
G1 X5.1853 Y1.6220 Z-8.3900 A-90.0000 B117.9957 C-164.6882 F1500.000
G1 X4.5838 Y2.8329 Z-8.3900 A-90.0000 B115.2790 C-160.4640 F1500.000
G1 X4.0000 Y3.6575 Z-8.3900 A-90.0000 B117.2337 C-154.5221 F1500.000
G1 X3.8846 Y3.7955 Z-8.3900 A-90.0000 B113.2769 C-150.7763 F1500.000
G1 X3.8057 Y3.8650 Z-8.3900 A-90.0000 B109.7220 C-151.7836 F1500.000
G1 X2.8567 Y4.5846 Z-8.3900 A-90.0000 B105.4917 C-148.1570 F1500.000
G1 X2.4405 Y4.8032 Z-8.3900 A-90.0000 B102.1939 C-149.2238 F1500.000
G1 X1.6055 Y5.1558 Z-8.3900 A-90.0000 B102.1939 C-149.2238 F1500.000
G1 X1.1518 Y5.2640 Z-8.3900 A-90.0000 B97.6310 C-145.7875 F1500.000
G1 X0.1414 Y5.4141 Z-8.3900 A-90.0000 B94.6563 C-146.7661 F1500.000
G1 X-0.1414 Y5.4141 Z-8.3900 A-90.0000 B85.3437 C-146.7661 F1500.000
G1 X-1.1518 Y5.2640 Z-8.3900 A-90.0000 B85.3437 C-146.7661 F1500.000
G1 X-1.6055 Y5.1558 Z-8.3900 A-90.0000 B77.8061 C-149.2238 F1500.000
G1 X-2.4405 Y4.8032 Z-8.3900 A-90.0000 B77.8061 C-149.2238 F1500.000
G1 X-2.8567 Y4.5846 Z-8.3900 A-90.0000 B70.2780 C-151.7836 F1500.000
G1 X-3.8057 Y3.8650 Z-8.3900 A-90.0000 B66.7231 C-150.7763 F1500.000
G1 X-3.8846 Y3.7955 Z-8.3900 A-90.0000 B66.7231 C-150.7763 F1500.000
G1 X-4.0000 Y3.6575 Z-8.3900 A-90.0000 B62.7663 C-154.5221 F1500.000
G1 X-4.5838 Y2.8329 Z-8.3900 A-90.0000 B64.7210 C-160.4640 F1500.000
G1 X-5.1853 Y1.6220 Z-8.3900 A-90.0000 B62.0043 C-164.6882 F1500.000
G1 X-5.2052 Y1.5760 Z-8.3900 A-90.0000 B57.4006 C-163.9216 F1500.000
G1 X-5.2124 Y1.5496 Z-8.3900 A-90.0000 B56.5203 C-174.6053 F1500.000
G1 X-5.4136 Y0.1342 Z-8.3900 A-90.0000 B56.5203 C-174.6053 F1500.000
G1 X-5.4136 Y-0.1342 Z-8.3900 A-90.0000 B53.2992 C-180.0000 F1500.000
G1 X-5.2124 Y-1.5496 Z-8.3900 A-90.0000 B56.5203 C174.6053 F1500.000
G1 X-5.2052 Y-1.5760 Z-8.3900 A-90.0000 B53.8729 C168.5654 F1500.000
G1 X-5.1853 Y-1.6220 Z-8.3900 A-90.0000 B62.0043 C164.6882 F1500.000
G1 X-4.5838 Y-2.8329 Z-8.3900 A-90.0000 B64.7210 C160.4640 F1500.000
G1 X-4.0000 Y-3.6575 Z-8.3900 A-90.0000 B64.7210 C160.4640 F1500.000
G1 X-3.8846 Y-3.7955 Z-8.3900 A-90.0000 B66.7231 C150.7763 F1500.000
G1 X-3.8057 Y-3.8650 Z-8.3900 A-90.0000 B70.2780 C151.7836 F1500.000
G1 X-2.8567 Y-4.5846 Z-8.3900 A-90.0000 B70.2780 C151.7836 F1500.000
G1 X-2.4405 Y-4.8032 Z-8.3900 A-90.0000 B77.8061 C149.2238 F1500.000
G1 X-1.6055 Y-5.1558 Z-8.3900 A-90.0000 B77.8061 C149.2238 F1500.000
G1 X-1.1518 Y-5.2640 Z-8.3900 A-90.0000 B82.3690 C145.7875 F1500.000
G1 X-0.1414 Y-5.4141 Z-8.3900 A-90.0000 B85.3437 C146.7661 F1500.000
G1 X-0.3842 Y-5.6833 Z-8.1900 A-90.0000 B85.3437 C146.7661 F1500.000
G1 X0.3842 Y-5.6833 Z-8.1900 A-90.0000 B94.6563 C146.7661 F1500.000
G1 X1.0281 Y-5.5876 Z-8.1900 A-90.0000 B97.6310 C145.7875 F1500.000
G1 X1.8319 Y-5.3960 Z-8.1900 A-90.0000 B97.6310 C145.7875 F1500.000
G1 X2.3066 Y-5.1956 Z-8.1900 A-90.0000 B102.1939 C149.2238 F1500.000
G1 X3.0744 Y-4.7922 Z-8.1900 A-90.0000 B109.7220 C151.7836 F1500.000
G1 X3.6818 Y-4.3317 Z-8.1900 A-90.0000 B113.2769 C150.7763 F1500.000
G1 X4.0819 Y-3.9791 Z-8.1900 A-90.0000 B117.2337 C154.5221 F1500.000
G1 X4.6670 Y-3.2791 Z-8.1900 A-90.0000 B115.2790 C160.4640 F1500.000
G1 X4.8614 Y-3.0045 Z-8.1900 A-90.0000 B117.9957 C164.6882 F1500.000
G1 X5.0617 Y-2.6013 Z-8.1900 A-90.0000 B117.9957 C164.6882 F1500.000
G1 X5.4201 Y-1.7739 Z-8.1900 A-90.0000 B126.1271 C168.5654 F1500.000
G1 X5.5492 Y-1.2985 Z-8.1900 A-90.0000 B126.1271 C168.5654 F1500.000
G1 X5.6819 Y-0.3646 Z-8.1900 A-90.0000 B123.4797 C174.6053 F1500.000
G1 X5.6819 Y0.3646 Z-8.1900 A-90.0000 B123.4797 C-174.6053 F1500.000
G1 X5.5492 Y1.2985 Z-8.1900 A-90.0000 B126.1271 C-168.5654 F1500.000
G1 X5.4201 Y1.7739 Z-8.1900 A-90.0000 B122.5994 C-163.9216 F1500.000
G1 X5.0617 Y2.6013 Z-8.1900 A-90.0000 B122.5994 C-163.9216 F1500.000
G1 X4.8614 Y3.0045 Z-8.1900 A-90.0000 B117.9957 C-164.6882 F1500.000
G1 X4.6670 Y3.2791 Z-8.1900 A-90.0000 B117.2337 C-154.5221 F1500.000
G1 X4.0819 Y3.9791 Z-8.1900 A-90.0000 B113.2769 C-150.7763 F1500.000
G1 X3.6818 Y4.3317 Z-8.1900 A-90.0000 B109.7220 C-151.7836 F1500.000
G1 X3.0744 Y4.7922 Z-8.1900 A-90.0000 B105.4917 C-148.1570 F1500.000
G1 X2.3066 Y5.1956 Z-8.1900 A-90.0000 B102.1939 C-149.2238 F1500.000
G1 X1.8319 Y5.3960 Z-8.1900 A-90.0000 B102.1939 C-149.2238 F1500.000
G1 X1.0281 Y5.5876 Z-8.1900 A-90.0000 B97.6310 C-145.7875 F1500.000
G1 X0.3842 Y5.6833 Z-8.1900 A-90.0000 B90.0000 C-143.3860 F1500.000
G1 X-0.3842 Y5.6833 Z-8.1900 A-90.0000 B90.0000 C-143.3860 F1500.000
G1 X-1.0281 Y5.5876 Z-8.1900 A-90.0000 B85.3437 C-146.7661 F1500.000
G1 X-1.8319 Y5.3960 Z-8.1900 A-90.0000 B82.3690 C-145.7875 F1500.000
G1 X-2.3066 Y5.1956 Z-8.1900 A-90.0000 B77.8061 C-149.2238 F1500.000
G1 X-3.0744 Y4.7922 Z-8.1900 A-90.0000 B70.2780 C-151.7836 F1500.000
G1 X-3.6818 Y4.3317 Z-8.1900 A-90.0000 B70.2780 C-151.7836 F1500.000
G1 X-4.0819 Y3.9791 Z-8.1900 A-90.0000 B66.7231 C-150.7763 F1500.000
G1 X-4.6670 Y3.2791 Z-8.1900 A-90.0000 B62.7663 C-154.5221 F1500.000
G1 X-4.8614 Y3.0045 Z-8.1900 A-90.0000 B64.7210 C-160.4640 F1500.000
G1 X-5.0617 Y2.6013 Z-8.1900 A-90.0000 B62.0043 C-164.6882 F1500.000
G1 X-5.4201 Y1.7739 Z-8.1900 A-90.0000 B57.4006 C-163.9216 F1500.000
G1 X-5.5492 Y1.2985 Z-8.1900 A-90.0000 B56.5203 C-174.6053 F1500.000
G1 X-5.6819 Y0.3646 Z-8.1900 A-90.0000 B56.5203 C-174.6053 F1500.000
G1 X-5.6819 Y-0.3646 Z-8.1900 A-90.0000 B56.5203 C174.6053 F1500.000
G1 X-5.5492 Y-1.2985 Z-8.1900 A-90.0000 B53.8729 C168.5654 F1500.000
G1 X-5.4201 Y-1.7739 Z-8.1900 A-90.0000 B57.4006 C163.9216 F1500.000
G1 X-5.0617 Y-2.6013 Z-8.1900 A-90.0000 B62.0043 C164.6882 F1500.000
G1 X-4.8614 Y-3.0045 Z-8.1900 A-90.0000 B64.7210 C160.4640 F1500.000
G1 X-4.6670 Y-3.2791 Z-8.1900 A-90.0000 B64.7210 C160.4640 F1500.000
G1 X-4.0819 Y-3.9791 Z-8.1900 A-90.0000 B66.7231 C150.7763 F1500.000
G1 X-3.6818 Y-4.3317 Z-8.1900 A-90.0000 B66.7231 C150.7763 F1500.000
G1 X-3.0744 Y-4.7922 Z-8.1900 A-90.0000 B70.2780 C151.7836 F1500.000
G1 X-2.3066 Y-5.1956 Z-8.1900 A-90.0000 B77.8061 C149.2238 F1500.000
G1 X-1.8319 Y-5.3960 Z-8.1900 A-90.0000 B77.8061 C149.2238 F1500.000
G1 X-1.0281 Y-5.5876 Z-8.1900 A-90.0000 B82.3690 C145.7875 F1500.000
G1 X-0.3842 Y-5.6833 Z-8.1900 A-90.0000 B85.3437 C146.7661 F1500.000
G1 X-0.6269 Y-5.9524 Z-7.9900 A-90.0000 B85.3437 C146.7661 F1500.000
G1 X0.6269 Y-5.9524 Z-7.9900 A-90.0000 B94.6563 C146.7661 F1500.000
G1 X0.9045 Y-5.9112 Z-7.9900 A-90.0000 B97.6310 C145.7875 F1500.000
G1 X2.0583 Y-5.6362 Z-7.9900 A-90.0000 B102.1939 C149.2238 F1500.000
G1 X2.1727 Y-5.5879 Z-7.9900 A-90.0000 B102.1939 C149.2238 F1500.000
G1 X3.2922 Y-4.9998 Z-7.9900 A-90.0000 B105.4917 C148.1570 F1500.000
G1 X3.5579 Y-4.7984 Z-7.9900 A-90.0000 B109.7220 C151.7836 F1500.000
G1 X4.2792 Y-4.1628 Z-7.9900 A-90.0000 B117.2337 C154.5221 F1500.000
G1 X4.9381 Y-3.3745 Z-7.9900 A-90.0000 B117.2337 C154.5221 F1500.000
G1 X5.0998 Y-3.1518 Z-7.9900 A-90.0000 B124.7055 C157.5889 F1500.000
G1 X5.2125 Y-2.9471 Z-7.9900 A-90.0000 B122.5994 C163.9216 F1500.000
G1 X5.6349 Y-1.9717 Z-7.9900 A-90.0000 B126.1271 C168.5654 F1500.000
G1 X5.8859 Y-1.0474 Z-7.9900 A-90.0000 B126.1271 C168.5654 F1500.000
G1 X5.9502 Y-0.5949 Z-7.9900 A-90.0000 B126.7008 C180.0000 F1500.000
G1 X5.9502 Y0.5949 Z-7.9900 A-90.0000 B123.4797 C-174.6053 F1500.000
G1 X5.8859 Y1.0474 Z-7.9900 A-90.0000 B123.4797 C-174.6053 F1500.000
G1 X5.6349 Y1.9717 Z-7.9900 A-90.0000 B122.5994 C-163.9216 F1500.000
G1 X5.2125 Y2.9471 Z-7.9900 A-90.0000 B124.7055 C-157.5889 F1500.000
G1 X5.0998 Y3.1518 Z-7.9900 A-90.0000 B121.7586 C-153.2856 F1500.000
G1 X4.9381 Y3.3745 Z-7.9900 A-90.0000 B117.2337 C-154.5221 F1500.000
G1 X4.2792 Y4.1628 Z-7.9900 A-90.0000 B113.2769 C-150.7763 F1500.000
G1 X3.5579 Y4.7984 Z-7.9900 A-90.0000 B109.7220 C-151.7836 F1500.000
G1 X3.2922 Y4.9998 Z-7.9900 A-90.0000 B109.7220 C-151.7836 F1500.000
G1 X2.1727 Y5.5879 Z-7.9900 A-90.0000 B102.1939 C-149.2238 F1500.000
G1 X2.0583 Y5.6362 Z-7.9900 A-90.0000 B102.1939 C-149.2238 F1500.000
G1 X0.9045 Y5.9112 Z-7.9900 A-90.0000 B97.6310 C-145.7875 F1500.000
G1 X0.6269 Y5.9524 Z-7.9900 A-90.0000 B94.6563 C-146.7661 F1500.000
G1 X-0.6269 Y5.9524 Z-7.9900 A-90.0000 B85.3437 C-146.7661 F1500.000
G1 X-0.9045 Y5.9112 Z-7.9900 A-90.0000 B82.3690 C-145.7875 F1500.000
G1 X-2.0583 Y5.6362 Z-7.9900 A-90.0000 B77.8061 C-149.2238 F1500.000
G1 X-2.1727 Y5.5879 Z-7.9900 A-90.0000 B77.8061 C-149.2238 F1500.000
G1 X-3.2922 Y4.9998 Z-7.9900 A-90.0000 B74.5083 C-148.1570 F1500.000
G1 X-3.5579 Y4.7984 Z-7.9900 A-90.0000 B70.2780 C-151.7836 F1500.000
G1 X-4.2792 Y4.1628 Z-7.9900 A-90.0000 B66.7231 C-150.7763 F1500.000
G1 X-4.9381 Y3.3745 Z-7.9900 A-90.0000 B62.7663 C-154.5221 F1500.000
G1 X-5.0998 Y3.1518 Z-7.9900 A-90.0000 B58.2414 C-153.2856 F1500.000
G1 X-5.2125 Y2.9471 Z-7.9900 A-90.0000 B57.4006 C-163.9216 F1500.000
G1 X-5.6349 Y1.9717 Z-7.9900 A-90.0000 B53.8729 C-168.5654 F1500.000
G1 X-5.8859 Y1.0474 Z-7.9900 A-90.0000 B56.5203 C-174.6053 F1500.000
G1 X-5.9502 Y0.5949 Z-7.9900 A-90.0000 B53.2992 C-180.0000 F1500.000
G1 X-5.9502 Y-0.5949 Z-7.9900 A-90.0000 B56.5203 C174.6053 F1500.000
G1 X-5.8859 Y-1.0474 Z-7.9900 A-90.0000 B56.5203 C174.6053 F1500.000
G1 X-5.6349 Y-1.9717 Z-7.9900 A-90.0000 B57.4006 C163.9216 F1500.000
G1 X-5.2125 Y-2.9471 Z-7.9900 A-90.0000 B57.4006 C163.9216 F1500.000
G1 X-5.0998 Y-3.1518 Z-7.9900 A-90.0000 B55.2945 C157.5889 F1500.000
G1 X-4.9381 Y-3.3745 Z-7.9900 A-90.0000 B62.7663 C154.5221 F1500.000
G1 X-4.2792 Y-4.1628 Z-7.9900 A-90.0000 B66.7231 C150.7763 F1500.000
G1 X-3.5579 Y-4.7984 Z-7.9900 A-90.0000 B70.2780 C151.7836 F1500.000
G1 X-3.2922 Y-4.9998 Z-7.9900 A-90.0000 B74.5083 C148.1570 F1500.000
G1 X-2.1727 Y-5.5879 Z-7.9900 A-90.0000 B77.8061 C149.2238 F1500.000
G1 X-2.0583 Y-5.6362 Z-7.9900 A-90.0000 B77.8061 C149.2238 F1500.000
G1 X-0.9045 Y-5.9112 Z-7.9900 A-90.0000 B85.3437 C146.7661 F1500.000
G1 X-0.6269 Y-5.9524 Z-7.9900 A-90.0000 B85.3437 C146.7661 F1500.000
G1 X-0.7567 Y-6.2147 Z-7.7900 A-90.0000 B90.0000 C140.2563 F1500.000
G1 X0.7567 Y-6.2147 Z-7.7900 A-90.0000 B94.6197 C136.9467 F1500.000
G1 X0.8580 Y-6.2027 Z-7.7900 A-90.0000 B99.2907 C140.2945 F1500.000
G1 X2.0513 Y-5.8971 Z-7.7900 A-90.0000 B99.2907 C140.2945 F1500.000
G1 X2.2556 Y-5.8276 Z-7.7900 A-90.0000 B107.0441 C142.5657 F1500.000
G1 X3.4340 Y-5.2332 Z-7.7900 A-90.0000 B107.0441 C142.5657 F1500.000
G1 X3.4985 Y-5.1947 Z-7.7900 A-90.0000 B114.8477 C144.8658 F1500.000
G1 X3.6749 Y-5.0528 Z-7.7900 A-90.0000 B113.2769 C150.7763 F1500.000
G1 X4.4765 Y-4.3465 Z-7.7900 A-90.0000 B113.2769 C150.7763 F1500.000
G1 X4.8145 Y-3.9421 Z-7.7900 A-90.0000 B121.7586 C153.2856 F1500.000
G1 X5.2990 Y-3.2749 Z-7.7900 A-90.0000 B124.7055 C157.5889 F1500.000
G1 X5.6367 Y-2.6615 Z-7.7900 A-90.0000 B124.7055 C157.5889 F1500.000
G1 X5.8497 Y-2.1696 Z-7.7900 A-90.0000 B122.5994 C163.9216 F1500.000
G1 X6.1949 Y-0.8986 Z-7.7900 A-90.0000 B129.7820 C168.0628 F1500.000
G1 X6.2138 Y-0.8225 Z-7.7900 A-90.0000 B133.3026 C173.6467 F1500.000
G1 X6.2166 Y-0.7988 Z-7.7900 A-90.0000 B130.3322 C180.0000 F1500.000
G1 X6.2166 Y0.7988 Z-7.7900 A-90.0000 B130.3322 C180.0000 F1500.000
G1 X6.2138 Y0.8225 Z-7.7900 A-90.0000 B133.3026 C-173.6467 F1500.000
G1 X6.1949 Y0.8986 Z-7.7900 A-90.0000 B129.7820 C-168.0628 F1500.000
G1 X5.8497 Y2.1696 Z-7.7900 A-90.0000 B122.5994 C-163.9216 F1500.000
G1 X5.6367 Y2.6615 Z-7.7900 A-90.0000 B124.7055 C-157.5889 F1500.000
G1 X5.2990 Y3.2749 Z-7.7900 A-90.0000 B121.7586 C-153.2856 F1500.000
G1 X4.8145 Y3.9421 Z-7.7900 A-90.0000 B117.2337 C-154.5221 F1500.000
G1 X4.4765 Y4.3465 Z-7.7900 A-90.0000 B117.2337 C-154.5221 F1500.000
G1 X3.6749 Y5.0528 Z-7.7900 A-90.0000 B113.2769 C-150.7763 F1500.000
G1 X3.4985 Y5.1947 Z-7.7900 A-90.0000 B110.4766 C-141.3136 F1500.000
G1 X3.4340 Y5.2332 Z-7.7900 A-90.0000 B107.0441 C-142.5657 F1500.000
G1 X2.2556 Y5.8276 Z-7.7900 A-90.0000 B107.0441 C-142.5657 F1500.000
G1 X2.0513 Y5.8971 Z-7.7900 A-90.0000 B99.2907 C-140.2945 F1500.000
G1 X0.8580 Y6.2027 Z-7.7900 A-90.0000 B99.2907 C-140.2945 F1500.000
G1 X0.7567 Y6.2147 Z-7.7900 A-90.0000 B94.6197 C-136.9467 F1500.000
G1 X-0.7567 Y6.2147 Z-7.7900 A-90.0000 B90.0000 C-140.2563 F1500.000
G1 X-0.8580 Y6.2027 Z-7.7900 A-90.0000 B85.3803 C-136.9467 F1500.000
G1 X-2.0513 Y5.8971 Z-7.7900 A-90.0000 B77.4479 C-139.1283 F1500.000
G1 X-2.2556 Y5.8276 Z-7.7900 A-90.0000 B72.9559 C-142.5657 F1500.000
G1 X-3.4340 Y5.2332 Z-7.7900 A-90.0000 B72.9559 C-142.5657 F1500.000
G1 X-3.4985 Y5.1947 Z-7.7900 A-90.0000 B69.5234 C-141.3136 F1500.000
G1 X-3.6749 Y5.0528 Z-7.7900 A-90.0000 B66.7231 C-150.7763 F1500.000
G1 X-4.4765 Y4.3465 Z-7.7900 A-90.0000 B66.7231 C-150.7763 F1500.000
G1 X-4.8145 Y3.9421 Z-7.7900 A-90.0000 B62.7663 C-154.5221 F1500.000
G1 X-5.2990 Y3.2749 Z-7.7900 A-90.0000 B58.2414 C-153.2856 F1500.000
G1 X-5.6367 Y2.6615 Z-7.7900 A-90.0000 B55.2945 C-157.5889 F1500.000
G1 X-5.8497 Y2.1696 Z-7.7900 A-90.0000 B53.8729 C-168.5654 F1500.000
G1 X-6.1949 Y0.8986 Z-7.7900 A-90.0000 B50.2180 C-168.0628 F1500.000
G1 X-6.2138 Y0.8225 Z-7.7900 A-90.0000 B46.6974 C-173.6467 F1500.000
G1 X-6.2166 Y0.7988 Z-7.7900 A-90.0000 B46.6974 C-173.6467 F1500.000
G1 X-6.2166 Y-0.7988 Z-7.7900 A-90.0000 B49.6678 C-180.0000 F1500.000
G1 X-6.2138 Y-0.8225 Z-7.7900 A-90.0000 B46.6974 C173.6467 F1500.000
G1 X-6.1949 Y-0.8986 Z-7.7900 A-90.0000 B53.8729 C168.5654 F1500.000
G1 X-5.8497 Y-2.1696 Z-7.7900 A-90.0000 B57.4006 C163.9216 F1500.000
G1 X-5.6367 Y-2.6615 Z-7.7900 A-90.0000 B57.4006 C163.9216 F1500.000
G1 X-5.2990 Y-3.2749 Z-7.7900 A-90.0000 B55.2945 C157.5889 F1500.000
G1 X-4.8145 Y-3.9421 Z-7.7900 A-90.0000 B62.7663 C154.5221 F1500.000
G1 X-4.4765 Y-4.3465 Z-7.7900 A-90.0000 B62.7663 C154.5221 F1500.000
G1 X-3.6749 Y-5.0528 Z-7.7900 A-90.0000 B66.7231 C150.7763 F1500.000
G1 X-3.4985 Y-5.1947 Z-7.7900 A-90.0000 B65.1523 C144.8658 F1500.000
G1 X-3.4340 Y-5.2332 Z-7.7900 A-90.0000 B72.9559 C142.5657 F1500.000
G1 X-2.2556 Y-5.8276 Z-7.7900 A-90.0000 B72.9559 C142.5657 F1500.000
G1 X-2.0513 Y-5.8971 Z-7.7900 A-90.0000 B80.7093 C140.2945 F1500.000
G1 X-0.8580 Y-6.2027 Z-7.7900 A-90.0000 B85.3803 C136.9467 F1500.000
G1 X-0.7567 Y-6.2147 Z-7.7900 A-90.0000 B90.0000 C140.2563 F1500.000
G1 X-0.5332 Y-6.4552 Z-7.5900 A-90.0000 B90.0000 C140.2563 F1500.000
G1 X0.5332 Y-6.4552 Z-7.5900 A-90.0000 B94.6197 C136.9467 F1500.000
G1 X1.0524 Y-6.3937 Z-7.5900 A-90.0000 B99.2907 C140.2945 F1500.000
G1 X1.9356 Y-6.1676 Z-7.5900 A-90.0000 B99.2907 C140.2945 F1500.000
G1 X2.4393 Y-5.9962 Z-7.5900 A-90.0000 B107.0441 C142.5657 F1500.000
G1 X3.3104 Y-5.5569 Z-7.5900 A-90.0000 B107.0441 C142.5657 F1500.000
G1 X3.6648 Y-5.3452 Z-7.5900 A-90.0000 B110.4766 C141.3136 F1500.000
G1 X4.6333 Y-4.5658 Z-7.5900 A-90.0000 B113.2769 C150.7763 F1500.000
G1 X4.6738 Y-4.5301 Z-7.5900 A-90.0000 B113.2769 C150.7763 F1500.000
G1 X4.6909 Y-4.5097 Z-7.5900 A-90.0000 B117.2337 C154.5221 F1500.000
G1 X5.4982 Y-3.3981 Z-7.5900 A-90.0000 B121.7586 C153.2856 F1500.000
G1 X6.0609 Y-2.3758 Z-7.5900 A-90.0000 B122.5994 C163.9216 F1500.000
G1 X6.0645 Y-2.3674 Z-7.5900 A-90.0000 B122.5994 C163.9216 F1500.000
G1 X6.0704 Y-2.3457 Z-7.5900 A-90.0000 B129.7820 C168.0628 F1500.000
G1 X6.4031 Y-1.0064 Z-7.5900 A-90.0000 B133.3026 C173.6467 F1500.000
G1 X6.4521 Y-0.5888 Z-7.5900 A-90.0000 B130.3322 C180.0000 F1500.000
G1 X6.4521 Y0.5888 Z-7.5900 A-90.0000 B130.3322 C180.0000 F1500.000
G1 X6.4031 Y1.0064 Z-7.5900 A-90.0000 B129.7820 C-168.0628 F1500.000
G1 X6.0704 Y2.3457 Z-7.5900 A-90.0000 B129.7820 C-168.0628 F1500.000
G1 X6.0645 Y2.3674 Z-7.5900 A-90.0000 B122.5994 C-163.9216 F1500.000
G1 X6.0609 Y2.3758 Z-7.5900 A-90.0000 B122.5994 C-163.9216 F1500.000
G1 X5.4982 Y3.3981 Z-7.5900 A-90.0000 B121.7586 C-153.2856 F1500.000
G1 X4.6909 Y4.5097 Z-7.5900 A-90.0000 B117.2337 C-154.5221 F1500.000
G1 X4.6738 Y4.5301 Z-7.5900 A-90.0000 B117.2337 C-154.5221 F1500.000
G1 X4.6333 Y4.5658 Z-7.5900 A-90.0000 B113.2769 C-150.7763 F1500.000
G1 X3.6648 Y5.3452 Z-7.5900 A-90.0000 B114.8477 C-144.8658 F1500.000
G1 X3.3104 Y5.5569 Z-7.5900 A-90.0000 B107.0441 C-142.5657 F1500.000
G1 X2.4393 Y5.9962 Z-7.5900 A-90.0000 B107.0441 C-142.5657 F1500.000
G1 X1.9356 Y6.1676 Z-7.5900 A-90.0000 B99.2907 C-140.2945 F1500.000
G1 X1.0524 Y6.3937 Z-7.5900 A-90.0000 B99.2907 C-140.2945 F1500.000
G1 X0.5332 Y6.4552 Z-7.5900 A-90.0000 B94.6197 C-136.9467 F1500.000
G1 X-0.5332 Y6.4552 Z-7.5900 A-90.0000 B90.0000 C-140.2563 F1500.000
G1 X-1.0524 Y6.3937 Z-7.5900 A-90.0000 B85.3803 C-136.9467 F1500.000
G1 X-1.9356 Y6.1676 Z-7.5900 A-90.0000 B77.4479 C-139.1283 F1500.000
G1 X-2.4393 Y5.9962 Z-7.5900 A-90.0000 B72.9559 C-142.5657 F1500.000
G1 X-3.3104 Y5.5569 Z-7.5900 A-90.0000 B72.9559 C-142.5657 F1500.000
G1 X-3.6648 Y5.3452 Z-7.5900 A-90.0000 B69.5234 C-141.3136 F1500.000
G1 X-4.6333 Y4.5658 Z-7.5900 A-90.0000 B66.7231 C-150.7763 F1500.000
G1 X-4.6738 Y4.5301 Z-7.5900 A-90.0000 B66.7231 C-150.7763 F1500.000
G1 X-4.6909 Y4.5097 Z-7.5900 A-90.0000 B62.7663 C-154.5221 F1500.000
G1 X-5.4982 Y3.3981 Z-7.5900 A-90.0000 B58.2414 C-153.2856 F1500.000
G1 X-6.0609 Y2.3758 Z-7.5900 A-90.0000 B57.4006 C-163.9216 F1500.000
G1 X-6.0645 Y2.3674 Z-7.5900 A-90.0000 B53.8729 C-168.5654 F1500.000
G1 X-6.0704 Y2.3457 Z-7.5900 A-90.0000 B53.8729 C-168.5654 F1500.000
G1 X-6.4031 Y1.0064 Z-7.5900 A-90.0000 B46.6974 C-173.6467 F1500.000
G1 X-6.4521 Y0.5888 Z-7.5900 A-90.0000 B46.6974 C-173.6467 F1500.000
G1 X-6.4521 Y-0.5888 Z-7.5900 A-90.0000 B49.6678 C-180.0000 F1500.000
G1 X-6.4031 Y-1.0064 Z-7.5900 A-90.0000 B46.6974 C173.6467 F1500.000
G1 X-6.0704 Y-2.3457 Z-7.5900 A-90.0000 B53.8729 C168.5654 F1500.000
G1 X-6.0645 Y-2.3674 Z-7.5900 A-90.0000 B57.4006 C163.9216 F1500.000
G1 X-6.0609 Y-2.3758 Z-7.5900 A-90.0000 B57.4006 C163.9216 F1500.000
G1 X-5.4982 Y-3.3981 Z-7.5900 A-90.0000 B55.2945 C157.5889 F1500.000
G1 X-4.6909 Y-4.5097 Z-7.5900 A-90.0000 B62.7663 C154.5221 F1500.000
G1 X-4.6738 Y-4.5301 Z-7.5900 A-90.0000 B62.7663 C154.5221 F1500.000
G1 X-4.6333 Y-4.5658 Z-7.5900 A-90.0000 B66.7231 C150.7763 F1500.000
G1 X-3.6648 Y-5.3452 Z-7.5900 A-90.0000 B65.1523 C144.8658 F1500.000
G1 X-3.3104 Y-5.5569 Z-7.5900 A-90.0000 B72.9559 C142.5657 F1500.000
G1 X-2.4393 Y-5.9962 Z-7.5900 A-90.0000 B72.9559 C142.5657 F1500.000
G1 X-1.9356 Y-6.1676 Z-7.5900 A-90.0000 B80.7093 C140.2945 F1500.000
G1 X-1.0524 Y-6.3937 Z-7.5900 A-90.0000 B85.3803 C136.9467 F1500.000
G1 X-0.5332 Y-6.4552 Z-7.5900 A-90.0000 B90.0000 C140.2563 F1500.000
G1 X-0.3097 Y-6.6957 Z-7.3900 A-90.0000 B90.0000 C140.2563 F1500.000
G1 X0.3097 Y-6.6957 Z-7.3900 A-90.0000 B94.6197 C136.9467 F1500.000
G1 X1.2469 Y-6.5848 Z-7.3900 A-90.0000 B94.6197 C136.9467 F1500.000
G1 X1.8199 Y-6.4381 Z-7.3900 A-90.0000 B99.2907 C140.2945 F1500.000
G1 X2.6230 Y-6.1648 Z-7.3900 A-90.0000 B107.0441 C142.5657 F1500.000
G1 X3.1868 Y-5.8805 Z-7.3900 A-90.0000 B110.4766 C141.3136 F1500.000
G1 X3.8310 Y-5.4956 Z-7.3900 A-90.0000 B114.8477 C144.8658 F1500.000
G1 X4.5673 Y-4.9032 Z-7.3900 A-90.0000 B119.2680 C143.2547 F1500.000
G1 X4.8472 Y-4.6409 Z-7.3900 A-90.0000 B123.1316 C147.7776 F1500.000
G1 X5.1800 Y-4.2335 Z-7.3900 A-90.0000 B121.7586 C153.2856 F1500.000
G1 X5.6974 Y-3.5212 Z-7.3900 A-90.0000 B121.7586 C153.2856 F1500.000
G1 X6.0480 Y-2.8843 Z-7.3900 A-90.0000 B129.9080 C157.2845 F1500.000
G1 X6.2369 Y-2.4750 Z-7.3900 A-90.0000 B132.1078 C161.1890 F1500.000
G1 X6.3567 Y-2.1392 Z-7.3900 A-90.0000 B129.7820 C168.0628 F1500.000
G1 X6.5924 Y-1.1904 Z-7.3900 A-90.0000 B133.3026 C173.6467 F1500.000
G1 X6.6877 Y-0.3789 Z-7.3900 A-90.0000 B130.3322 C180.0000 F1500.000
G1 X6.6877 Y0.3789 Z-7.3900 A-90.0000 B133.3026 C-173.6467 F1500.000
G1 X6.5924 Y1.1904 Z-7.3900 A-90.0000 B129.7820 C-168.0628 F1500.000
G1 X6.3567 Y2.1392 Z-7.3900 A-90.0000 B129.7820 C-168.0628 F1500.000
G1 X6.2369 Y2.4750 Z-7.3900 A-90.0000 B129.9080 C-157.2845 F1500.000
G1 X6.0480 Y2.8843 Z-7.3900 A-90.0000 B129.9080 C-157.2845 F1500.000
G1 X5.6974 Y3.5212 Z-7.3900 A-90.0000 B121.7586 C-153.2856 F1500.000
G1 X5.1800 Y4.2335 Z-7.3900 A-90.0000 B121.7586 C-153.2856 F1500.000
G1 X4.8472 Y4.6409 Z-7.3900 A-90.0000 B123.1316 C-147.7776 F1500.000
G1 X4.5673 Y4.9032 Z-7.3900 A-90.0000 B114.8477 C-144.8658 F1500.000
G1 X3.8310 Y5.4956 Z-7.3900 A-90.0000 B110.4766 C-141.3136 F1500.000
G1 X3.1868 Y5.8805 Z-7.3900 A-90.0000 B110.4766 C-141.3136 F1500.000
G1 X2.6230 Y6.1648 Z-7.3900 A-90.0000 B107.0441 C-142.5657 F1500.000
G1 X1.8199 Y6.4381 Z-7.3900 A-90.0000 B99.2907 C-140.2945 F1500.000
G1 X1.2469 Y6.5848 Z-7.3900 A-90.0000 B99.2907 C-140.2945 F1500.000
G1 X0.3097 Y6.6957 Z-7.3900 A-90.0000 B94.6197 C-136.9467 F1500.000
G1 X-0.3097 Y6.6957 Z-7.3900 A-90.0000 B90.0000 C-140.2563 F1500.000
G1 X-1.2469 Y6.5848 Z-7.3900 A-90.0000 B85.3803 C-136.9467 F1500.000
G1 X-1.8199 Y6.4381 Z-7.3900 A-90.0000 B80.7093 C-140.2945 F1500.000
G1 X-2.6230 Y6.1648 Z-7.3900 A-90.0000 B72.9559 C-142.5657 F1500.000
G1 X-3.1868 Y5.8805 Z-7.3900 A-90.0000 B69.5234 C-141.3136 F1500.000
G1 X-3.8310 Y5.4956 Z-7.3900 A-90.0000 B69.5234 C-141.3136 F1500.000
G1 X-4.5673 Y4.9032 Z-7.3900 A-90.0000 B65.1523 C-144.8658 F1500.000
G1 X-4.8472 Y4.6409 Z-7.3900 A-90.0000 B60.7320 C-143.2547 F1500.000
G1 X-5.1800 Y4.2335 Z-7.3900 A-90.0000 B56.8684 C-147.7776 F1500.000
G1 X-5.6974 Y3.5212 Z-7.3900 A-90.0000 B55.2945 C-157.5889 F1500.000
G1 X-6.0480 Y2.8843 Z-7.3900 A-90.0000 B55.2945 C-157.5889 F1500.000
G1 X-6.2369 Y2.4750 Z-7.3900 A-90.0000 B47.8922 C-161.1890 F1500.000
G1 X-6.3567 Y2.1392 Z-7.3900 A-90.0000 B50.2180 C-168.0628 F1500.000
G1 X-6.5924 Y1.1904 Z-7.3900 A-90.0000 B46.6974 C-173.6467 F1500.000
G1 X-6.6877 Y0.3789 Z-7.3900 A-90.0000 B49.6678 C-180.0000 F1500.000
G1 X-6.6877 Y-0.3789 Z-7.3900 A-90.0000 B46.6974 C173.6467 F1500.000
G1 X-6.5924 Y-1.1904 Z-7.3900 A-90.0000 B46.6974 C173.6467 F1500.000
G1 X-6.3567 Y-2.1392 Z-7.3900 A-90.0000 B50.2180 C168.0628 F1500.000
G1 X-6.2369 Y-2.4750 Z-7.3900 A-90.0000 B50.0920 C157.2845 F1500.000
G1 X-6.0480 Y-2.8843 Z-7.3900 A-90.0000 B55.2945 C157.5889 F1500.000
G1 X-5.6974 Y-3.5212 Z-7.3900 A-90.0000 B58.2414 C153.2856 F1500.000
G1 X-5.1800 Y-4.2335 Z-7.3900 A-90.0000 B58.2414 C153.2856 F1500.000
G1 X-4.8472 Y-4.6409 Z-7.3900 A-90.0000 B60.7320 C143.2547 F1500.000
G1 X-4.5673 Y-4.9032 Z-7.3900 A-90.0000 B65.1523 C144.8658 F1500.000
G1 X-3.8310 Y-5.4956 Z-7.3900 A-90.0000 B65.1523 C144.8658 F1500.000
G1 X-3.1868 Y-5.8805 Z-7.3900 A-90.0000 B69.5234 C141.3136 F1500.000
G1 X-2.6230 Y-6.1648 Z-7.3900 A-90.0000 B72.9559 C142.5657 F1500.000
G1 X-1.8199 Y-6.4381 Z-7.3900 A-90.0000 B77.4479 C139.1283 F1500.000
G1 X-1.2469 Y-6.5848 Z-7.3900 A-90.0000 B80.7093 C140.2945 F1500.000
G1 X-0.3097 Y-6.6957 Z-7.3900 A-90.0000 B90.0000 C140.2563 F1500.000
G1 X-0.0863 Y-6.9362 Z-7.1900 A-90.0000 B85.3803 C136.9467 F1500.000
G1 X0.0863 Y-6.9362 Z-7.1900 A-90.0000 B94.6197 C136.9467 F1500.000
G1 X1.4414 Y-6.7759 Z-7.1900 A-90.0000 B99.2907 C140.2945 F1500.000
G1 X1.7043 Y-6.7085 Z-7.1900 A-90.0000 B102.5521 C139.1283 F1500.000
G1 X2.8067 Y-6.3334 Z-7.1900 A-90.0000 B107.0441 C142.5657 F1500.000
G1 X3.0632 Y-6.2041 Z-7.1900 A-90.0000 B107.0441 C142.5657 F1500.000
G1 X3.9972 Y-5.6461 Z-7.1900 A-90.0000 B110.4766 C141.3136 F1500.000
G1 X4.4437 Y-5.2868 Z-7.1900 A-90.0000 B114.8477 C144.8658 F1500.000
G1 X5.0193 Y-4.7475 Z-7.1900 A-90.0000 B123.1316 C147.7776 F1500.000
G1 X5.7036 Y-3.9099 Z-7.1900 A-90.0000 B121.7586 C153.2856 F1500.000
G1 X5.8966 Y-3.6443 Z-7.1900 A-90.0000 B124.7055 C157.5889 F1500.000
G1 X6.0273 Y-3.4068 Z-7.1900 A-90.0000 B129.9080 C157.2845 F1500.000
G1 X6.4086 Y-2.5809 Z-7.1900 A-90.0000 B129.9080 C157.2845 F1500.000
G1 X6.6503 Y-1.9035 Z-7.1900 A-90.0000 B129.7820 C168.0628 F1500.000
G1 X6.7817 Y-1.3743 Z-7.1900 A-90.0000 B133.3026 C173.6467 F1500.000
G1 X6.9233 Y-0.1689 Z-7.1900 A-90.0000 B130.3322 C180.0000 F1500.000
G1 X6.9233 Y0.1689 Z-7.1900 A-90.0000 B133.3026 C-173.6467 F1500.000
G1 X6.7817 Y1.3743 Z-7.1900 A-90.0000 B129.7820 C-168.0628 F1500.000
G1 X6.6503 Y1.9035 Z-7.1900 A-90.0000 B129.7820 C-168.0628 F1500.000
G1 X6.4086 Y2.5809 Z-7.1900 A-90.0000 B129.9080 C-157.2845 F1500.000
G1 X6.0273 Y3.4068 Z-7.1900 A-90.0000 B129.9080 C-157.2845 F1500.000
G1 X5.8966 Y3.6443 Z-7.1900 A-90.0000 B121.7586 C-153.2856 F1500.000
G1 X5.7036 Y3.9099 Z-7.1900 A-90.0000 B123.1316 C-147.7776 F1500.000
G1 X5.0193 Y4.7475 Z-7.1900 A-90.0000 B123.1316 C-147.7776 F1500.000
G1 X4.4437 Y5.2868 Z-7.1900 A-90.0000 B114.8477 C-144.8658 F1500.000
G1 X3.9972 Y5.6461 Z-7.1900 A-90.0000 B114.8477 C-144.8658 F1500.000
G1 X3.0632 Y6.2041 Z-7.1900 A-90.0000 B107.0441 C-142.5657 F1500.000
G1 X2.8067 Y6.3334 Z-7.1900 A-90.0000 B107.0441 C-142.5657 F1500.000
G1 X1.7043 Y6.7085 Z-7.1900 A-90.0000 B102.5521 C-139.1283 F1500.000
G1 X1.4414 Y6.7759 Z-7.1900 A-90.0000 B99.2907 C-140.2945 F1500.000
G1 X0.0863 Y6.9362 Z-7.1900 A-90.0000 B94.6197 C-136.9467 F1500.000
G1 X-0.0863 Y6.9362 Z-7.1900 A-90.0000 B85.3803 C-136.9467 F1500.000
G1 X-1.4414 Y6.7759 Z-7.1900 A-90.0000 B80.7093 C-140.2945 F1500.000
G1 X-1.7043 Y6.7085 Z-7.1900 A-90.0000 B80.7093 C-140.2945 F1500.000
G1 X-2.8067 Y6.3334 Z-7.1900 A-90.0000 B72.9559 C-142.5657 F1500.000
G1 X-3.0632 Y6.2041 Z-7.1900 A-90.0000 B72.9559 C-142.5657 F1500.000
G1 X-3.9972 Y5.6461 Z-7.1900 A-90.0000 B65.1523 C-144.8658 F1500.000
G1 X-4.4437 Y5.2868 Z-7.1900 A-90.0000 B65.1523 C-144.8658 F1500.000
G1 X-5.0193 Y4.7475 Z-7.1900 A-90.0000 B60.7320 C-143.2547 F1500.000
G1 X-5.7036 Y3.9099 Z-7.1900 A-90.0000 B58.2414 C-153.2856 F1500.000
G1 X-5.8966 Y3.6443 Z-7.1900 A-90.0000 B55.2945 C-157.5889 F1500.000
G1 X-6.0273 Y3.4068 Z-7.1900 A-90.0000 B55.2945 C-157.5889 F1500.000
G1 X-6.4086 Y2.5809 Z-7.1900 A-90.0000 B50.0920 C-157.2845 F1500.000
G1 X-6.6503 Y1.9035 Z-7.1900 A-90.0000 B47.8922 C-161.1890 F1500.000
G1 X-6.7817 Y1.3743 Z-7.1900 A-90.0000 B46.6974 C-173.6467 F1500.000
G1 X-6.9233 Y0.1689 Z-7.1900 A-90.0000 B49.6678 C-180.0000 F1500.000
G1 X-6.9233 Y-0.1689 Z-7.1900 A-90.0000 B46.6974 C173.6467 F1500.000
G1 X-6.7817 Y-1.3743 Z-7.1900 A-90.0000 B50.2180 C168.0628 F1500.000
G1 X-6.6503 Y-1.9035 Z-7.1900 A-90.0000 B50.2180 C168.0628 F1500.000
G1 X-6.4086 Y-2.5809 Z-7.1900 A-90.0000 B50.0920 C157.2845 F1500.000
G1 X-6.0273 Y-3.4068 Z-7.1900 A-90.0000 B55.2945 C157.5889 F1500.000
G1 X-5.8966 Y-3.6443 Z-7.1900 A-90.0000 B58.2414 C153.2856 F1500.000
G1 X-5.7036 Y-3.9099 Z-7.1900 A-90.0000 B58.2414 C153.2856 F1500.000
G1 X-5.0193 Y-4.7475 Z-7.1900 A-90.0000 B60.7320 C143.2547 F1500.000
G1 X-4.4437 Y-5.2868 Z-7.1900 A-90.0000 B65.1523 C144.8658 F1500.000
G1 X-3.9972 Y-5.6461 Z-7.1900 A-90.0000 B69.5234 C141.3136 F1500.000
G1 X-3.0632 Y-6.2041 Z-7.1900 A-90.0000 B72.9559 C142.5657 F1500.000
G1 X-2.8067 Y-6.3334 Z-7.1900 A-90.0000 B72.9559 C142.5657 F1500.000
G1 X-1.7043 Y-6.7085 Z-7.1900 A-90.0000 B77.4479 C139.1283 F1500.000
G1 X-1.4414 Y-6.7759 Z-7.1900 A-90.0000 B80.7093 C140.2945 F1500.000
G1 X-0.0863 Y-6.9362 Z-7.1900 A-90.0000 B85.3803 C136.9467 F1500.000
G1 X-0.1095 Y-7.1333 Z-6.9900 A-90.0000 B90.0000 C130.3322 F1500.000
G1 X0.1095 Y-7.1333 Z-6.9900 A-90.0000 B94.6191 C133.4788 F1500.000
G1 X1.5766 Y-6.9700 Z-6.9900 A-90.0000 B94.6191 C133.4788 F1500.000
G1 X1.6307 Y-6.9586 Z-6.9900 A-90.0000 B99.1461 C130.3991 F1500.000
G1 X2.9396 Y-6.5127 Z-6.9900 A-90.0000 B103.8405 C133.6759 F1500.000
G1 X2.9849 Y-6.4937 Z-6.9900 A-90.0000 B111.8232 C135.6364 F1500.000
G1 X3.2632 Y-6.3343 Z-6.9900 A-90.0000 B110.4766 C141.3136 F1500.000
G1 X4.1634 Y-5.7965 Z-6.9900 A-90.0000 B110.4766 C141.3136 F1500.000
G1 X4.3201 Y-5.6705 Z-6.9900 A-90.0000 B114.8477 C144.8658 F1500.000
G1 X5.1914 Y-4.8542 Z-6.9900 A-90.0000 B123.1316 C147.7776 F1500.000
G1 X5.9651 Y-3.9072 Z-6.9900 A-90.0000 B128.3632 C145.8234 F1500.000
G1 X6.0739 Y-3.7539 Z-6.9900 A-90.0000 B131.5814 C150.2000 F1500.000
G1 X6.1519 Y-3.6146 Z-6.9900 A-90.0000 B129.9080 C157.2845 F1500.000
G1 X6.5803 Y-2.6868 Z-6.9900 A-90.0000 B129.9080 C157.2845 F1500.000
G1 X6.9439 Y-1.6677 Z-6.9900 A-90.0000 B132.1078 C161.1890 F1500.000
G1 X6.9711 Y-1.5582 Z-6.9900 A-90.0000 B133.3026 C173.6467 F1500.000
G1 X7.0733 Y-0.6876 Z-6.9900 A-90.0000 B133.3026 C173.6467 F1500.000
G1 X7.1453 Y-0.0363 Z-6.9900 A-90.0000 B140.2563 C180.0000 F1500.000
G1 X7.1453 Y0.0363 Z-6.9900 A-90.0000 B136.7478 C-173.2497 F1500.000
G1 X7.0733 Y0.6876 Z-6.9900 A-90.0000 B136.7478 C-173.2497 F1500.000
G1 X6.9711 Y1.5582 Z-6.9900 A-90.0000 B129.7820 C-168.0628 F1500.000
G1 X6.9439 Y1.6677 Z-6.9900 A-90.0000 B132.1078 C-161.1890 F1500.000
G1 X6.5803 Y2.6868 Z-6.9900 A-90.0000 B129.9080 C-157.2845 F1500.000
G1 X6.1519 Y3.6146 Z-6.9900 A-90.0000 B129.9080 C-157.2845 F1500.000
G1 X6.0739 Y3.7539 Z-6.9900 A-90.0000 B131.5814 C-150.2000 F1500.000
G1 X5.9651 Y3.9072 Z-6.9900 A-90.0000 B123.1316 C-147.7776 F1500.000
G1 X5.1914 Y4.8542 Z-6.9900 A-90.0000 B123.1316 C-147.7776 F1500.000
G1 X4.3201 Y5.6705 Z-6.9900 A-90.0000 B114.8477 C-144.8658 F1500.000
G1 X4.1634 Y5.7965 Z-6.9900 A-90.0000 B114.8477 C-144.8658 F1500.000
G1 X3.2632 Y6.3343 Z-6.9900 A-90.0000 B110.4766 C-141.3136 F1500.000
G1 X2.9849 Y6.4937 Z-6.9900 A-90.0000 B111.8232 C-135.6364 F1500.000
G1 X2.9396 Y6.5127 Z-6.9900 A-90.0000 B103.8405 C-133.6759 F1500.000
G1 X1.6307 Y6.9586 Z-6.9900 A-90.0000 B99.1461 C-130.3991 F1500.000
G1 X1.5766 Y6.9700 Z-6.9900 A-90.0000 B94.6191 C-133.4788 F1500.000
G1 X0.1095 Y7.1333 Z-6.9900 A-90.0000 B94.6191 C-133.4788 F1500.000
G1 X-0.1095 Y7.1333 Z-6.9900 A-90.0000 B85.3809 C-133.4788 F1500.000
G1 X-1.5766 Y6.9700 Z-6.9900 A-90.0000 B85.3809 C-133.4788 F1500.000
G1 X-1.6307 Y6.9586 Z-6.9900 A-90.0000 B80.8539 C-130.3991 F1500.000
G1 X-2.9396 Y6.5127 Z-6.9900 A-90.0000 B76.1595 C-133.6759 F1500.000
G1 X-2.9849 Y6.4937 Z-6.9900 A-90.0000 B72.7699 C-132.1985 F1500.000
G1 X-3.2632 Y6.3343 Z-6.9900 A-90.0000 B69.5234 C-141.3136 F1500.000
G1 X-4.1634 Y5.7965 Z-6.9900 A-90.0000 B65.1523 C-144.8658 F1500.000
G1 X-4.3201 Y5.6705 Z-6.9900 A-90.0000 B65.1523 C-144.8658 F1500.000
G1 X-5.1914 Y4.8542 Z-6.9900 A-90.0000 B60.7320 C-143.2547 F1500.000
G1 X-5.9651 Y3.9072 Z-6.9900 A-90.0000 B56.8684 C-147.7776 F1500.000
G1 X-6.0739 Y3.7539 Z-6.9900 A-90.0000 B51.6368 C-145.8234 F1500.000
G1 X-6.1519 Y3.6146 Z-6.9900 A-90.0000 B50.0920 C-157.2845 F1500.000
G1 X-6.5803 Y2.6868 Z-6.9900 A-90.0000 B47.8922 C-161.1890 F1500.000
G1 X-6.9439 Y1.6677 Z-6.9900 A-90.0000 B47.8922 C-161.1890 F1500.000
G1 X-6.9711 Y1.5582 Z-6.9900 A-90.0000 B46.6974 C-173.6467 F1500.000
G1 X-7.0733 Y0.6876 Z-6.9900 A-90.0000 B46.6974 C-173.6467 F1500.000
G1 X-7.1453 Y0.0363 Z-6.9900 A-90.0000 B43.2522 C-173.2497 F1500.000
G1 X-7.1453 Y-0.0363 Z-6.9900 A-90.0000 B43.2522 C173.2497 F1500.000
G1 X-7.0733 Y-0.6876 Z-6.9900 A-90.0000 B46.6974 C173.6467 F1500.000
G1 X-6.9711 Y-1.5582 Z-6.9900 A-90.0000 B50.2180 C168.0628 F1500.000
G1 X-6.9439 Y-1.6677 Z-6.9900 A-90.0000 B47.8922 C161.1890 F1500.000
G1 X-6.5803 Y-2.6868 Z-6.9900 A-90.0000 B50.0920 C157.2845 F1500.000
G1 X-6.1519 Y-3.6146 Z-6.9900 A-90.0000 B50.0920 C157.2845 F1500.000
G1 X-6.0739 Y-3.7539 Z-6.9900 A-90.0000 B48.4186 C150.2000 F1500.000
G1 X-5.9651 Y-3.9072 Z-6.9900 A-90.0000 B56.8684 C147.7776 F1500.000
G1 X-5.1914 Y-4.8542 Z-6.9900 A-90.0000 B60.7320 C143.2547 F1500.000
G1 X-4.3201 Y-5.6705 Z-6.9900 A-90.0000 B65.1523 C144.8658 F1500.000
G1 X-4.1634 Y-5.7965 Z-6.9900 A-90.0000 B69.5234 C141.3136 F1500.000
G1 X-3.2632 Y-6.3343 Z-6.9900 A-90.0000 B69.5234 C141.3136 F1500.000
G1 X-2.9849 Y-6.4937 Z-6.9900 A-90.0000 B72.7699 C132.1985 F1500.000
G1 X-2.9396 Y-6.5127 Z-6.9900 A-90.0000 B76.1595 C133.6759 F1500.000
G1 X-1.6307 Y-6.9586 Z-6.9900 A-90.0000 B80.8539 C130.3991 F1500.000
G1 X-1.5766 Y-6.9700 Z-6.9900 A-90.0000 B85.3809 C133.4788 F1500.000
G1 X-0.1095 Y-7.1333 Z-6.9900 A-90.0000 B90.0000 C130.3322 F1500.000
G1 X-0.2877 Y-7.3032 Z-6.7900 A-90.0000 B90.0000 C130.3322 F1500.000
G1 X0.2877 Y-7.3032 Z-6.7900 A-90.0000 B94.6191 C133.4788 F1500.000
G1 X1.3823 Y-7.1813 Z-6.7900 A-90.0000 B94.6191 C133.4788 F1500.000
G1 X1.7913 Y-7.0948 Z-6.7900 A-90.0000 B99.1461 C130.3991 F1500.000
G1 X2.8162 Y-6.7457 Z-6.7900 A-90.0000 B103.8405 C133.6759 F1500.000
G1 X3.1352 Y-6.6122 Z-6.7900 A-90.0000 B111.8232 C135.6364 F1500.000
G1 X4.1965 Y-6.0044 Z-6.7900 A-90.0000 B111.8232 C135.6364 F1500.000
G1 X4.3186 Y-5.9215 Z-6.7900 A-90.0000 B116.1333 C133.7344 F1500.000
G1 X4.5601 Y-5.7135 Z-6.7900 A-90.0000 B119.2680 C143.2547 F1500.000
G1 X5.3635 Y-4.9609 Z-6.7900 A-90.0000 B119.2680 C143.2547 F1500.000
G1 X5.8421 Y-4.3751 Z-6.7900 A-90.0000 B128.3632 C145.8234 F1500.000
G1 X6.2192 Y-3.8437 Z-6.7900 A-90.0000 B131.5814 C150.2000 F1500.000
G1 X6.4897 Y-3.3608 Z-6.7900 A-90.0000 B129.9080 C157.2845 F1500.000
G1 X6.7520 Y-2.7927 Z-6.7900 A-90.0000 B129.9080 C157.2845 F1500.000
G1 X7.0213 Y-2.0378 Z-6.7900 A-90.0000 B132.1078 C161.1890 F1500.000
G1 X7.1298 Y-1.6694 Z-6.7900 A-90.0000 B137.5701 C161.2090 F1500.000
G1 X7.1752 Y-1.4558 Z-6.7900 A-90.0000 B136.7478 C173.2497 F1500.000
G1 X7.3116 Y-0.2221 Z-6.7900 A-90.0000 B140.2563 C180.0000 F1500.000
G1 X7.3116 Y0.2221 Z-6.7900 A-90.0000 B136.7478 C-173.2497 F1500.000
G1 X7.1752 Y1.4558 Z-6.7900 A-90.0000 B139.3978 C-165.6368 F1500.000
G1 X7.1298 Y1.6694 Z-6.7900 A-90.0000 B137.5701 C-161.2090 F1500.000
G1 X7.0213 Y2.0378 Z-6.7900 A-90.0000 B132.1078 C-161.1890 F1500.000
G1 X6.7520 Y2.7927 Z-6.7900 A-90.0000 B129.9080 C-157.2845 F1500.000
G1 X6.4897 Y3.3608 Z-6.7900 A-90.0000 B129.9080 C-157.2845 F1500.000
G1 X6.2192 Y3.8437 Z-6.7900 A-90.0000 B131.5814 C-150.2000 F1500.000
G1 X5.8421 Y4.3751 Z-6.7900 A-90.0000 B128.3632 C-145.8234 F1500.000
G1 X5.3635 Y4.9609 Z-6.7900 A-90.0000 B119.2680 C-143.2547 F1500.000
G1 X4.5601 Y5.7135 Z-6.7900 A-90.0000 B119.2680 C-143.2547 F1500.000
G1 X4.3186 Y5.9215 Z-6.7900 A-90.0000 B120.2485 C-137.3603 F1500.000
G1 X4.1965 Y6.0044 Z-6.7900 A-90.0000 B111.8232 C-135.6364 F1500.000
G1 X3.1352 Y6.6122 Z-6.7900 A-90.0000 B111.8232 C-135.6364 F1500.000
G1 X2.8162 Y6.7457 Z-6.7900 A-90.0000 B103.8405 C-133.6759 F1500.000
G1 X1.7913 Y7.0948 Z-6.7900 A-90.0000 B103.8405 C-133.6759 F1500.000
G1 X1.3823 Y7.1813 Z-6.7900 A-90.0000 B94.6191 C-133.4788 F1500.000
G1 X0.2877 Y7.3032 Z-6.7900 A-90.0000 B94.6191 C-133.4788 F1500.000
G1 X-0.2877 Y7.3032 Z-6.7900 A-90.0000 B85.3809 C-133.4788 F1500.000
G1 X-1.3823 Y7.1813 Z-6.7900 A-90.0000 B85.3809 C-133.4788 F1500.000
G1 X-1.7913 Y7.0948 Z-6.7900 A-90.0000 B80.8539 C-130.3991 F1500.000
G1 X-2.8162 Y6.7457 Z-6.7900 A-90.0000 B76.1595 C-133.6759 F1500.000
G1 X-3.1352 Y6.6122 Z-6.7900 A-90.0000 B72.7699 C-132.1985 F1500.000
G1 X-4.1965 Y6.0044 Z-6.7900 A-90.0000 B63.8667 C-133.7344 F1500.000
G1 X-4.3186 Y5.9215 Z-6.7900 A-90.0000 B63.8667 C-133.7344 F1500.000
G1 X-4.5601 Y5.7135 Z-6.7900 A-90.0000 B59.7515 C-137.3603 F1500.000
G1 X-5.3635 Y4.9609 Z-6.7900 A-90.0000 B56.8684 C-147.7776 F1500.000
G1 X-5.8421 Y4.3751 Z-6.7900 A-90.0000 B56.8684 C-147.7776 F1500.000
G1 X-6.2192 Y3.8437 Z-6.7900 A-90.0000 B51.6368 C-145.8234 F1500.000
G1 X-6.4897 Y3.3608 Z-6.7900 A-90.0000 B50.0920 C-157.2845 F1500.000
G1 X-6.7520 Y2.7927 Z-6.7900 A-90.0000 B47.8922 C-161.1890 F1500.000
G1 X-7.0213 Y2.0378 Z-6.7900 A-90.0000 B42.4299 C-161.2090 F1500.000
G1 X-7.1298 Y1.6694 Z-6.7900 A-90.0000 B40.6022 C-165.6368 F1500.000
G1 X-7.1752 Y1.4558 Z-6.7900 A-90.0000 B43.2522 C-173.2497 F1500.000
G1 X-7.3116 Y0.2221 Z-6.7900 A-90.0000 B43.2522 C-173.2497 F1500.000
G1 X-7.3116 Y-0.2221 Z-6.7900 A-90.0000 B43.2522 C173.2497 F1500.000
G1 X-7.1752 Y-1.4558 Z-6.7900 A-90.0000 B40.6022 C165.6368 F1500.000
G1 X-7.1298 Y-1.6694 Z-6.7900 A-90.0000 B40.6022 C165.6368 F1500.000
G1 X-7.0213 Y-2.0378 Z-6.7900 A-90.0000 B47.8922 C161.1890 F1500.000
G1 X-6.7520 Y-2.7927 Z-6.7900 A-90.0000 B47.8922 C161.1890 F1500.000
G1 X-6.4897 Y-3.3608 Z-6.7900 A-90.0000 B50.0920 C157.2845 F1500.000
G1 X-6.2192 Y-3.8437 Z-6.7900 A-90.0000 B48.4186 C150.2000 F1500.000
G1 X-5.8421 Y-4.3751 Z-6.7900 A-90.0000 B56.8684 C147.7776 F1500.000
G1 X-5.3635 Y-4.9609 Z-6.7900 A-90.0000 B56.8684 C147.7776 F1500.000
G1 X-4.5601 Y-5.7135 Z-6.7900 A-90.0000 B59.7515 C137.3603 F1500.000
G1 X-4.3186 Y-5.9215 Z-6.7900 A-90.0000 B63.8667 C133.7344 F1500.000
G1 X-4.1965 Y-6.0044 Z-6.7900 A-90.0000 B63.8667 C133.7344 F1500.000
G1 X-3.1352 Y-6.6122 Z-6.7900 A-90.0000 B72.7699 C132.1985 F1500.000
G1 X-2.8162 Y-6.7457 Z-6.7900 A-90.0000 B76.1595 C133.6759 F1500.000
G1 X-1.7913 Y-7.0948 Z-6.7900 A-90.0000 B76.1595 C133.6759 F1500.000
G1 X-1.3823 Y-7.1813 Z-6.7900 A-90.0000 B85.3809 C133.4788 F1500.000
G1 X-0.2877 Y-7.3032 Z-6.7900 A-90.0000 B90.0000 C130.3322 F1500.000
G1 X-0.4660 Y-7.4730 Z-6.5900 A-90.0000 B90.0000 C130.3322 F1500.000
G1 X0.4660 Y-7.4730 Z-6.5900 A-90.0000 B94.6191 C133.4788 F1500.000
G1 X1.1880 Y-7.3926 Z-6.5900 A-90.0000 B94.6191 C133.4788 F1500.000
G1 X1.9519 Y-7.2311 Z-6.5900 A-90.0000 B99.1461 C130.3991 F1500.000
G1 X2.6928 Y-6.9787 Z-6.5900 A-90.0000 B107.2301 C132.1985 F1500.000
G1 X3.2855 Y-6.7306 Z-6.5900 A-90.0000 B111.8232 C135.6364 F1500.000
G1 X4.0728 Y-6.2796 Z-6.5900 A-90.0000 B116.1333 C133.7344 F1500.000
G1 X4.4606 Y-6.0163 Z-6.5900 A-90.0000 B116.1333 C133.7344 F1500.000
G1 X5.2278 Y-5.3559 Z-6.5900 A-90.0000 B119.2680 C143.2547 F1500.000
G1 X5.5356 Y-5.0675 Z-6.5900 A-90.0000 B119.2680 C143.2547 F1500.000
G1 X5.7190 Y-4.8431 Z-6.5900 A-90.0000 B123.1316 C147.7776 F1500.000
G1 X6.3645 Y-3.9335 Z-6.5900 A-90.0000 B131.5814 C150.2000 F1500.000
G1 X6.8274 Y-3.1071 Z-6.5900 A-90.0000 B129.9080 C157.2845 F1500.000
G1 X6.9236 Y-2.8987 Z-6.5900 A-90.0000 B132.1078 C161.1890 F1500.000
G1 X7.0224 Y-2.6217 Z-6.5900 A-90.0000 B132.1078 C161.1890 F1500.000
G1 X7.2776 Y-1.7550 Z-6.5900 A-90.0000 B137.5701 C161.2090 F1500.000
G1 X7.3846 Y-1.2522 Z-6.5900 A-90.0000 B139.3978 C165.6368 F1500.000
G1 X7.4779 Y-0.4080 Z-6.5900 A-90.0000 B140.2563 C180.0000 F1500.000
G1 X7.4779 Y0.4080 Z-6.5900 A-90.0000 B136.7478 C-173.2497 F1500.000
G1 X7.3846 Y1.2522 Z-6.5900 A-90.0000 B139.3978 C-165.6368 F1500.000
G1 X7.2776 Y1.7550 Z-6.5900 A-90.0000 B137.5701 C-161.2090 F1500.000
G1 X7.0224 Y2.6217 Z-6.5900 A-90.0000 B132.1078 C-161.1890 F1500.000
G1 X6.9236 Y2.8987 Z-6.5900 A-90.0000 B129.9080 C-157.2845 F1500.000
G1 X6.8274 Y3.1071 Z-6.5900 A-90.0000 B129.9080 C-157.2845 F1500.000
G1 X6.3645 Y3.9335 Z-6.5900 A-90.0000 B131.5814 C-150.2000 F1500.000
G1 X5.7190 Y4.8431 Z-6.5900 A-90.0000 B123.1316 C-147.7776 F1500.000
G1 X5.5356 Y5.0675 Z-6.5900 A-90.0000 B119.2680 C-143.2547 F1500.000
G1 X5.2278 Y5.3559 Z-6.5900 A-90.0000 B119.2680 C-143.2547 F1500.000
G1 X4.4606 Y6.0163 Z-6.5900 A-90.0000 B120.2485 C-137.3603 F1500.000
G1 X4.0728 Y6.2796 Z-6.5900 A-90.0000 B116.1333 C-133.7344 F1500.000
G1 X3.2855 Y6.7306 Z-6.5900 A-90.0000 B111.8232 C-135.6364 F1500.000
G1 X2.6928 Y6.9787 Z-6.5900 A-90.0000 B107.2301 C-132.1985 F1500.000
G1 X1.9519 Y7.2311 Z-6.5900 A-90.0000 B99.1461 C-130.3991 F1500.000
G1 X1.1880 Y7.3926 Z-6.5900 A-90.0000 B94.6191 C-133.4788 F1500.000
G1 X0.4660 Y7.4730 Z-6.5900 A-90.0000 B94.6191 C-133.4788 F1500.000
G1 X-0.4660 Y7.4730 Z-6.5900 A-90.0000 B90.0000 C-130.3322 F1500.000
G1 X-1.1880 Y7.3926 Z-6.5900 A-90.0000 B80.8539 C-130.3991 F1500.000
G1 X-1.9519 Y7.2311 Z-6.5900 A-90.0000 B80.8539 C-130.3991 F1500.000
G1 X-2.6928 Y6.9787 Z-6.5900 A-90.0000 B72.7699 C-132.1985 F1500.000
G1 X-3.2855 Y6.7306 Z-6.5900 A-90.0000 B72.7699 C-132.1985 F1500.000
G1 X-4.0728 Y6.2796 Z-6.5900 A-90.0000 B68.1768 C-135.6364 F1500.000
G1 X-4.4606 Y6.0163 Z-6.5900 A-90.0000 B63.8667 C-133.7344 F1500.000
G1 X-5.2278 Y5.3559 Z-6.5900 A-90.0000 B60.7320 C-143.2547 F1500.000
G1 X-5.5356 Y5.0675 Z-6.5900 A-90.0000 B56.8684 C-147.7776 F1500.000
G1 X-5.7190 Y4.8431 Z-6.5900 A-90.0000 B56.8684 C-147.7776 F1500.000
G1 X-6.3645 Y3.9335 Z-6.5900 A-90.0000 B51.6368 C-145.8234 F1500.000
G1 X-6.8274 Y3.1071 Z-6.5900 A-90.0000 B50.0920 C-157.2845 F1500.000
G1 X-6.9236 Y2.8987 Z-6.5900 A-90.0000 B47.8922 C-161.1890 F1500.000
G1 X-7.0224 Y2.6217 Z-6.5900 A-90.0000 B47.8922 C-161.1890 F1500.000
G1 X-7.2776 Y1.7550 Z-6.5900 A-90.0000 B40.6022 C-165.6368 F1500.000
G1 X-7.3846 Y1.2522 Z-6.5900 A-90.0000 B43.2522 C-173.2497 F1500.000
G1 X-7.4779 Y0.4080 Z-6.5900 A-90.0000 B43.2522 C-173.2497 F1500.000
G1 X-7.4779 Y-0.4080 Z-6.5900 A-90.0000 B39.7437 C-180.0000 F1500.000
G1 X-7.3846 Y-1.2522 Z-6.5900 A-90.0000 B40.6022 C165.6368 F1500.000
G1 X-7.2776 Y-1.7550 Z-6.5900 A-90.0000 B40.6022 C165.6368 F1500.000
G1 X-7.0224 Y-2.6217 Z-6.5900 A-90.0000 B47.8922 C161.1890 F1500.000
G1 X-6.9236 Y-2.8987 Z-6.5900 A-90.0000 B50.0920 C157.2845 F1500.000
G1 X-6.8274 Y-3.1071 Z-6.5900 A-90.0000 B50.0920 C157.2845 F1500.000
G1 X-6.3645 Y-3.9335 Z-6.5900 A-90.0000 B48.4186 C150.2000 F1500.000
G1 X-5.7190 Y-4.8431 Z-6.5900 A-90.0000 B56.8684 C147.7776 F1500.000
G1 X-5.5356 Y-5.0675 Z-6.5900 A-90.0000 B56.8684 C147.7776 F1500.000
G1 X-5.2278 Y-5.3559 Z-6.5900 A-90.0000 B60.7320 C143.2547 F1500.000
G1 X-4.4606 Y-6.0163 Z-6.5900 A-90.0000 B63.8667 C133.7344 F1500.000
G1 X-4.0728 Y-6.2796 Z-6.5900 A-90.0000 B68.1768 C135.6364 F1500.000
G1 X-3.2855 Y-6.7306 Z-6.5900 A-90.0000 B68.1768 C135.6364 F1500.000
G1 X-2.6928 Y-6.9787 Z-6.5900 A-90.0000 B72.7699 C132.1985 F1500.000
G1 X-1.9519 Y-7.2311 Z-6.5900 A-90.0000 B80.8539 C130.3991 F1500.000
G1 X-1.1880 Y-7.3926 Z-6.5900 A-90.0000 B85.3809 C133.4788 F1500.000
G1 X-0.4660 Y-7.4730 Z-6.5900 A-90.0000 B90.0000 C130.3322 F1500.000
G1 X-0.6442 Y-7.6428 Z-6.3900 A-90.0000 B90.0000 C130.3322 F1500.000
G1 X0.6442 Y-7.6428 Z-6.3900 A-90.0000 B94.6191 C133.4788 F1500.000
G1 X0.9937 Y-7.6039 Z-6.3900 A-90.0000 B94.6191 C133.4788 F1500.000
G1 X2.1125 Y-7.3673 Z-6.3900 A-90.0000 B103.8405 C133.6759 F1500.000
G1 X2.5694 Y-7.2117 Z-6.3900 A-90.0000 B103.8405 C133.6759 F1500.000
G1 X3.4357 Y-6.8490 Z-6.3900 A-90.0000 B111.8232 C135.6364 F1500.000
G1 X3.9492 Y-6.5549 Z-6.3900 A-90.0000 B116.1333 C133.7344 F1500.000
G1 X4.6027 Y-6.1112 Z-6.3900 A-90.0000 B116.1333 C133.7344 F1500.000
G1 X5.5957 Y-5.2564 Z-6.3900 A-90.0000 B120.2485 C137.3603 F1500.000
G1 X5.6894 Y-5.1627 Z-6.3900 A-90.0000 B129.4550 C139.2755 F1500.000
G1 X5.8023 Y-5.0203 Z-6.3900 A-90.0000 B128.3632 C145.8234 F1500.000
G1 X6.5098 Y-4.0233 Z-6.3900 A-90.0000 B131.5814 C150.2000 F1500.000
G1 X7.0032 Y-3.1425 Z-6.3900 A-90.0000 B131.5814 C150.2000 F1500.000
G1 X7.0751 Y-2.9922 Z-6.3900 A-90.0000 B139.3916 C153.2356 F1500.000
G1 X7.1229 Y-2.8684 Z-6.3900 A-90.0000 B137.5701 C161.2090 F1500.000
G1 X7.4255 Y-1.8405 Z-6.3900 A-90.0000 B137.5701 C161.2090 F1500.000
G1 X7.5939 Y-1.0486 Z-6.3900 A-90.0000 B136.7478 C173.2497 F1500.000
G1 X7.6442 Y-0.5938 Z-6.3900 A-90.0000 B136.7478 C173.2497 F1500.000
G1 X7.6442 Y0.5938 Z-6.3900 A-90.0000 B140.2563 C180.0000 F1500.000
G1 X7.5939 Y1.0486 Z-6.3900 A-90.0000 B139.3978 C-165.6368 F1500.000
G1 X7.4255 Y1.8405 Z-6.3900 A-90.0000 B139.3978 C-165.6368 F1500.000
G1 X7.1229 Y2.8684 Z-6.3900 A-90.0000 B137.5701 C-161.2090 F1500.000
G1 X7.0751 Y2.9922 Z-6.3900 A-90.0000 B136.9919 C-149.1452 F1500.000
G1 X7.0032 Y3.1425 Z-6.3900 A-90.0000 B131.5814 C-150.2000 F1500.000
G1 X6.5098 Y4.0233 Z-6.3900 A-90.0000 B131.5814 C-150.2000 F1500.000
G1 X5.8023 Y5.0203 Z-6.3900 A-90.0000 B128.3632 C-145.8234 F1500.000
G1 X5.6894 Y5.1627 Z-6.3900 A-90.0000 B125.2644 C-135.0000 F1500.000
G1 X5.5957 Y5.2564 Z-6.3900 A-90.0000 B120.2485 C-137.3603 F1500.000
G1 X4.6027 Y6.1112 Z-6.3900 A-90.0000 B120.2485 C-137.3603 F1500.000
G1 X3.9492 Y6.5549 Z-6.3900 A-90.0000 B116.1333 C-133.7344 F1500.000
G1 X3.4357 Y6.8490 Z-6.3900 A-90.0000 B107.2301 C-132.1985 F1500.000
G1 X2.5694 Y7.2117 Z-6.3900 A-90.0000 B103.8405 C-133.6759 F1500.000
G1 X2.1125 Y7.3673 Z-6.3900 A-90.0000 B103.8405 C-133.6759 F1500.000
G1 X0.9937 Y7.6039 Z-6.3900 A-90.0000 B94.6191 C-133.4788 F1500.000
G1 X0.6442 Y7.6428 Z-6.3900 A-90.0000 B94.6191 C-133.4788 F1500.000
G1 X-0.6442 Y7.6428 Z-6.3900 A-90.0000 B85.3809 C-133.4788 F1500.000
G1 X-0.9937 Y7.6039 Z-6.3900 A-90.0000 B85.3809 C-133.4788 F1500.000
G1 X-2.1125 Y7.3673 Z-6.3900 A-90.0000 B76.1595 C-133.6759 F1500.000
G1 X-2.5694 Y7.2117 Z-6.3900 A-90.0000 B76.1595 C-133.6759 F1500.000
G1 X-3.4357 Y6.8490 Z-6.3900 A-90.0000 B72.7699 C-132.1985 F1500.000
G1 X-3.9492 Y6.5549 Z-6.3900 A-90.0000 B68.1768 C-135.6364 F1500.000
G1 X-4.6027 Y6.1112 Z-6.3900 A-90.0000 B63.8667 C-133.7344 F1500.000
G1 X-5.5957 Y5.2564 Z-6.3900 A-90.0000 B59.7515 C-137.3603 F1500.000
G1 X-5.6894 Y5.1627 Z-6.3900 A-90.0000 B54.7356 C-135.0000 F1500.000
G1 X-5.8023 Y5.0203 Z-6.3900 A-90.0000 B51.6368 C-145.8234 F1500.000
G1 X-6.5098 Y4.0233 Z-6.3900 A-90.0000 B51.6368 C-145.8234 F1500.000
G1 X-7.0032 Y3.1425 Z-6.3900 A-90.0000 B48.4186 C-150.2000 F1500.000
G1 X-7.0751 Y2.9922 Z-6.3900 A-90.0000 B43.0081 C-149.1452 F1500.000
G1 X-7.1229 Y2.8684 Z-6.3900 A-90.0000 B42.4299 C-161.2090 F1500.000
G1 X-7.4255 Y1.8405 Z-6.3900 A-90.0000 B40.6022 C-165.6368 F1500.000
G1 X-7.5939 Y1.0486 Z-6.3900 A-90.0000 B43.2522 C-173.2497 F1500.000
G1 X-7.6442 Y0.5938 Z-6.3900 A-90.0000 B43.2522 C-173.2497 F1500.000
G1 X-7.6442 Y-0.5938 Z-6.3900 A-90.0000 B43.2522 C173.2497 F1500.000
G1 X-7.5939 Y-1.0486 Z-6.3900 A-90.0000 B43.2522 C173.2497 F1500.000
G1 X-7.4255 Y-1.8405 Z-6.3900 A-90.0000 B40.6022 C165.6368 F1500.000
G1 X-7.1229 Y-2.8684 Z-6.3900 A-90.0000 B42.4299 C161.2090 F1500.000
G1 X-7.0751 Y-2.9922 Z-6.3900 A-90.0000 B43.0081 C149.1452 F1500.000
G1 X-7.0032 Y-3.1425 Z-6.3900 A-90.0000 B48.4186 C150.2000 F1500.000
G1 X-6.5098 Y-4.0233 Z-6.3900 A-90.0000 B48.4186 C150.2000 F1500.000
G1 X-5.8023 Y-5.0203 Z-6.3900 A-90.0000 B51.6368 C145.8234 F1500.000
G1 X-5.6894 Y-5.1627 Z-6.3900 A-90.0000 B50.5450 C139.2755 F1500.000
G1 X-5.5957 Y-5.2564 Z-6.3900 A-90.0000 B59.7515 C137.3603 F1500.000
G1 X-4.6027 Y-6.1112 Z-6.3900 A-90.0000 B59.7515 C137.3603 F1500.000
G1 X-3.9492 Y-6.5549 Z-6.3900 A-90.0000 B68.1768 C135.6364 F1500.000
G1 X-3.4357 Y-6.8490 Z-6.3900 A-90.0000 B72.7699 C132.1985 F1500.000
G1 X-2.5694 Y-7.2117 Z-6.3900 A-90.0000 B72.7699 C132.1985 F1500.000
G1 X-2.1125 Y-7.3673 Z-6.3900 A-90.0000 B76.1595 C133.6759 F1500.000
G1 X-0.9937 Y-7.6039 Z-6.3900 A-90.0000 B85.3809 C133.4788 F1500.000
G1 X-0.6442 Y-7.6428 Z-6.3900 A-90.0000 B90.0000 C130.3322 F1500.000
G1 X-0.8008 Y-7.8113 Z-6.1900 A-90.0000 B85.5024 C123.5969 F1500.000
G1 X0.8008 Y-7.8113 Z-6.1900 A-90.0000 B94.4976 C123.5969 F1500.000
G1 X0.8207 Y-7.8094 Z-6.1900 A-90.0000 B94.4976 C123.5969 F1500.000
G1 X0.9555 Y-7.7821 Z-6.1900 A-90.0000 B99.1461 C130.3991 F1500.000
G1 X2.2731 Y-7.5036 Z-6.1900 A-90.0000 B103.8405 C133.6759 F1500.000
G1 X2.4460 Y-7.4447 Z-6.1900 A-90.0000 B103.8405 C133.6759 F1500.000
G1 X3.5860 Y-6.9674 Z-6.1900 A-90.0000 B107.2301 C132.1985 F1500.000
G1 X3.8256 Y-6.8302 Z-6.1900 A-90.0000 B111.8232 C135.6364 F1500.000
G1 X4.7448 Y-6.2061 Z-6.1900 A-90.0000 B116.1333 C133.7344 F1500.000
G1 X5.4721 Y-5.5800 Z-6.1900 A-90.0000 B120.2485 C137.3603 F1500.000
G1 X5.8130 Y-5.2391 Z-6.1900 A-90.0000 B129.4550 C139.2755 F1500.000
G1 X6.2239 Y-4.7207 Z-6.1900 A-90.0000 B128.3632 C145.8234 F1500.000
G1 X6.6551 Y-4.1131 Z-6.1900 A-90.0000 B131.5814 C150.2000 F1500.000
G1 X6.9558 Y-3.5763 Z-6.1900 A-90.0000 B131.5814 C150.2000 F1500.000
G1 X7.1987 Y-3.0686 Z-6.1900 A-90.0000 B139.3916 C153.2356 F1500.000
G1 X7.3601 Y-2.6505 Z-6.1900 A-90.0000 B139.3916 C153.2356 F1500.000
G1 X7.5734 Y-1.9260 Z-6.1900 A-90.0000 B139.3978 C165.6368 F1500.000
G1 X7.8033 Y-0.8450 Z-6.1900 A-90.0000 B136.7478 C173.2497 F1500.000
G1 X7.8105 Y-0.7797 Z-6.1900 A-90.0000 B136.7478 C173.2497 F1500.000
G1 X7.8105 Y0.7797 Z-6.1900 A-90.0000 B140.2563 C180.0000 F1500.000
G1 X7.8033 Y0.8450 Z-6.1900 A-90.0000 B139.3978 C-165.6368 F1500.000
G1 X7.5734 Y1.9260 Z-6.1900 A-90.0000 B137.5701 C-161.2090 F1500.000
G1 X7.3601 Y2.6505 Z-6.1900 A-90.0000 B139.3916 C-153.2356 F1500.000
G1 X7.1987 Y3.0686 Z-6.1900 A-90.0000 B136.9919 C-149.1452 F1500.000
G1 X6.9558 Y3.5763 Z-6.1900 A-90.0000 B131.5814 C-150.2000 F1500.000
G1 X6.6551 Y4.1131 Z-6.1900 A-90.0000 B131.5814 C-150.2000 F1500.000
G1 X6.2239 Y4.7207 Z-6.1900 A-90.0000 B128.3632 C-145.8234 F1500.000
G1 X5.8130 Y5.2391 Z-6.1900 A-90.0000 B125.2644 C-135.0000 F1500.000
G1 X5.4721 Y5.5800 Z-6.1900 A-90.0000 B125.2644 C-135.0000 F1500.000
G1 X4.7448 Y6.2061 Z-6.1900 A-90.0000 B120.2485 C-137.3603 F1500.000
G1 X3.8256 Y6.8302 Z-6.1900 A-90.0000 B111.8232 C-135.6364 F1500.000
G1 X3.5860 Y6.9674 Z-6.1900 A-90.0000 B107.2301 C-132.1985 F1500.000
G1 X2.4460 Y7.4447 Z-6.1900 A-90.0000 B103.8405 C-133.6759 F1500.000
G1 X2.2731 Y7.5036 Z-6.1900 A-90.0000 B103.8405 C-133.6759 F1500.000
G1 X0.9555 Y7.7821 Z-6.1900 A-90.0000 B99.2144 C-126.6758 F1500.000
G1 X0.8207 Y7.8094 Z-6.1900 A-90.0000 B99.2144 C-126.6758 F1500.000
G1 X0.8008 Y7.8113 Z-6.1900 A-90.0000 B94.4976 C-123.5969 F1500.000
G1 X-0.8008 Y7.8113 Z-6.1900 A-90.0000 B90.0000 C-126.7008 F1500.000
G1 X-0.8207 Y7.8094 Z-6.1900 A-90.0000 B80.7856 C-126.6758 F1500.000
G1 X-0.9555 Y7.7821 Z-6.1900 A-90.0000 B80.8539 C-130.3991 F1500.000
G1 X-2.2731 Y7.5036 Z-6.1900 A-90.0000 B76.1595 C-133.6759 F1500.000
G1 X-2.4460 Y7.4447 Z-6.1900 A-90.0000 B76.1595 C-133.6759 F1500.000
G1 X-3.5860 Y6.9674 Z-6.1900 A-90.0000 B68.1768 C-135.6364 F1500.000
G1 X-3.8256 Y6.8302 Z-6.1900 A-90.0000 B68.1768 C-135.6364 F1500.000
G1 X-4.7448 Y6.2061 Z-6.1900 A-90.0000 B63.8667 C-133.7344 F1500.000
G1 X-5.4721 Y5.5800 Z-6.1900 A-90.0000 B54.7356 C-135.0000 F1500.000
G1 X-5.8130 Y5.2391 Z-6.1900 A-90.0000 B54.7356 C-135.0000 F1500.000
G1 X-6.2239 Y4.7207 Z-6.1900 A-90.0000 B51.6368 C-145.8234 F1500.000
G1 X-6.6551 Y4.1131 Z-6.1900 A-90.0000 B48.4186 C-150.2000 F1500.000
G1 X-6.9558 Y3.5763 Z-6.1900 A-90.0000 B48.4186 C-150.2000 F1500.000
G1 X-7.1987 Y3.0686 Z-6.1900 A-90.0000 B43.0081 C-149.1452 F1500.000
G1 X-7.3601 Y2.6505 Z-6.1900 A-90.0000 B40.6084 C-153.2356 F1500.000
G1 X-7.5734 Y1.9260 Z-6.1900 A-90.0000 B40.6022 C-165.6368 F1500.000
G1 X-7.8033 Y0.8450 Z-6.1900 A-90.0000 B43.2522 C-173.2497 F1500.000
G1 X-7.8105 Y0.7797 Z-6.1900 A-90.0000 B43.2522 C-173.2497 F1500.000
G1 X-7.8105 Y-0.7797 Z-6.1900 A-90.0000 B39.7437 C-180.0000 F1500.000
G1 X-7.8033 Y-0.8450 Z-6.1900 A-90.0000 B43.2522 C173.2497 F1500.000
G1 X-7.5734 Y-1.9260 Z-6.1900 A-90.0000 B42.4299 C161.2090 F1500.000
G1 X-7.3601 Y-2.6505 Z-6.1900 A-90.0000 B42.4299 C161.2090 F1500.000
G1 X-7.1987 Y-3.0686 Z-6.1900 A-90.0000 B43.0081 C149.1452 F1500.000
G1 X-6.9558 Y-3.5763 Z-6.1900 A-90.0000 B48.4186 C150.2000 F1500.000
G1 X-6.6551 Y-4.1131 Z-6.1900 A-90.0000 B51.6368 C145.8234 F1500.000
G1 X-6.2239 Y-4.7207 Z-6.1900 A-90.0000 B51.6368 C145.8234 F1500.000
G1 X-5.8130 Y-5.2391 Z-6.1900 A-90.0000 B50.5450 C139.2755 F1500.000
G1 X-5.4721 Y-5.5800 Z-6.1900 A-90.0000 B54.7356 C135.0000 F1500.000
G1 X-4.7448 Y-6.2061 Z-6.1900 A-90.0000 B59.7515 C137.3603 F1500.000
G1 X-3.8256 Y-6.8302 Z-6.1900 A-90.0000 B68.1768 C135.6364 F1500.000
G1 X-3.5860 Y-6.9674 Z-6.1900 A-90.0000 B68.1768 C135.6364 F1500.000
G1 X-2.4460 Y-7.4447 Z-6.1900 A-90.0000 B76.1595 C133.6759 F1500.000
G1 X-2.2731 Y-7.5036 Z-6.1900 A-90.0000 B76.1595 C133.6759 F1500.000
G1 X-0.9555 Y-7.7821 Z-6.1900 A-90.0000 B80.7856 C126.6758 F1500.000
G1 X-0.8207 Y-7.8094 Z-6.1900 A-90.0000 B85.5024 C123.5969 F1500.000
G1 X-0.8008 Y-7.8113 Z-6.1900 A-90.0000 B85.5024 C123.5969 F1500.000
G1 X-0.6291 Y-7.9604 Z-5.9900 A-90.0000 B85.5024 C123.5969 F1500.000
G1 X0.6291 Y-7.9604 Z-5.9900 A-90.0000 B94.4976 C123.5969 F1500.000
G1 X0.9698 Y-7.9282 Z-5.9900 A-90.0000 B94.4976 C123.5969 F1500.000
G1 X2.2988 Y-7.6594 Z-5.9900 A-90.0000 B99.2144 C126.6758 F1500.000
G1 X2.4236 Y-7.6234 Z-5.9900 A-90.0000 B108.2656 C126.8389 F1500.000
G1 X3.7020 Y-7.0962 Z-5.9900 A-90.0000 B108.2656 C126.8389 F1500.000
G1 X3.7329 Y-7.0806 Z-5.9900 A-90.0000 B116.5204 C127.6502 F1500.000
G1 X3.8126 Y-7.0304 Z-5.9900 A-90.0000 B116.1333 C133.7344 F1500.000
G1 X4.8869 Y-6.3010 Z-5.9900 A-90.0000 B120.2485 C137.3603 F1500.000
G1 X5.3485 Y-5.9036 Z-5.9900 A-90.0000 B120.2485 C137.3603 F1500.000
G1 X5.9366 Y-5.3155 Z-5.9900 A-90.0000 B129.4550 C139.2755 F1500.000
G1 X6.6455 Y-4.4212 Z-5.9900 A-90.0000 B129.4550 C139.2755 F1500.000
G1 X6.8004 Y-4.2029 Z-5.9900 A-90.0000 B131.5814 C150.2000 F1500.000
G1 X6.9085 Y-4.0100 Z-5.9900 A-90.0000 B131.5814 C150.2000 F1500.000
G1 X7.3223 Y-3.1450 Z-5.9900 A-90.0000 B139.3916 C153.2356 F1500.000
G1 X7.5973 Y-2.4326 Z-5.9900 A-90.0000 B137.5701 C161.2090 F1500.000
G1 X7.7213 Y-2.0116 Z-5.9900 A-90.0000 B139.3978 C165.6368 F1500.000
G1 X7.8714 Y-1.3055 Z-5.9900 A-90.0000 B139.3978 C165.6368 F1500.000
G1 X7.9413 Y-0.8744 Z-5.9900 A-90.0000 B146.4786 C171.5471 F1500.000
G1 X7.9621 Y-0.6608 Z-5.9900 A-90.0000 B143.3860 C180.0000 F1500.000
G1 X7.9621 Y0.6608 Z-5.9900 A-90.0000 B143.3860 C180.0000 F1500.000
G1 X7.9413 Y0.8744 Z-5.9900 A-90.0000 B145.0482 C-166.5972 F1500.000
G1 X7.8714 Y1.3055 Z-5.9900 A-90.0000 B139.3978 C-165.6368 F1500.000
G1 X7.7213 Y2.0116 Z-5.9900 A-90.0000 B139.3978 C-165.6368 F1500.000
G1 X7.5973 Y2.4326 Z-5.9900 A-90.0000 B137.5701 C-161.2090 F1500.000
G1 X7.3223 Y3.1450 Z-5.9900 A-90.0000 B136.9919 C-149.1452 F1500.000
G1 X6.9085 Y4.0100 Z-5.9900 A-90.0000 B131.5814 C-150.2000 F1500.000
G1 X6.8004 Y4.2029 Z-5.9900 A-90.0000 B131.5814 C-150.2000 F1500.000
G1 X6.6455 Y4.4212 Z-5.9900 A-90.0000 B129.4550 C-139.2755 F1500.000
G1 X5.9366 Y5.3155 Z-5.9900 A-90.0000 B125.2644 C-135.0000 F1500.000
G1 X5.3485 Y5.9036 Z-5.9900 A-90.0000 B120.2485 C-137.3603 F1500.000
G1 X4.8869 Y6.3010 Z-5.9900 A-90.0000 B116.1333 C-133.7344 F1500.000
G1 X3.8126 Y7.0304 Z-5.9900 A-90.0000 B116.1333 C-133.7344 F1500.000
G1 X3.7329 Y7.0806 Z-5.9900 A-90.0000 B116.5204 C-127.6502 F1500.000
G1 X3.7020 Y7.0962 Z-5.9900 A-90.0000 B108.2656 C-126.8389 F1500.000
G1 X2.4236 Y7.6234 Z-5.9900 A-90.0000 B103.4926 C-123.6456 F1500.000
G1 X2.2988 Y7.6594 Z-5.9900 A-90.0000 B99.2144 C-126.6758 F1500.000
G1 X0.9698 Y7.9282 Z-5.9900 A-90.0000 B99.2144 C-126.6758 F1500.000
G1 X0.6291 Y7.9604 Z-5.9900 A-90.0000 B94.4976 C-123.5969 F1500.000
G1 X-0.6291 Y7.9604 Z-5.9900 A-90.0000 B90.0000 C-126.7008 F1500.000
G1 X-0.9698 Y7.9282 Z-5.9900 A-90.0000 B80.7856 C-126.6758 F1500.000
G1 X-2.2988 Y7.6594 Z-5.9900 A-90.0000 B80.7856 C-126.6758 F1500.000
G1 X-2.4236 Y7.6234 Z-5.9900 A-90.0000 B71.7344 C-126.8389 F1500.000
G1 X-3.7020 Y7.0962 Z-5.9900 A-90.0000 B71.7344 C-126.8389 F1500.000
G1 X-3.7329 Y7.0806 Z-5.9900 A-90.0000 B63.4796 C-127.6502 F1500.000
G1 X-3.8126 Y7.0304 Z-5.9900 A-90.0000 B63.8667 C-133.7344 F1500.000
G1 X-4.8869 Y6.3010 Z-5.9900 A-90.0000 B63.8667 C-133.7344 F1500.000
G1 X-5.3485 Y5.9036 Z-5.9900 A-90.0000 B59.7515 C-137.3603 F1500.000
G1 X-5.9366 Y5.3155 Z-5.9900 A-90.0000 B54.7356 C-135.0000 F1500.000
G1 X-6.6455 Y4.4212 Z-5.9900 A-90.0000 B51.6368 C-145.8234 F1500.000
G1 X-6.8004 Y4.2029 Z-5.9900 A-90.0000 B48.4186 C-150.2000 F1500.000
G1 X-6.9085 Y4.0100 Z-5.9900 A-90.0000 B48.4186 C-150.2000 F1500.000
G1 X-7.3223 Y3.1450 Z-5.9900 A-90.0000 B43.0081 C-149.1452 F1500.000
G1 X-7.5973 Y2.4326 Z-5.9900 A-90.0000 B40.6084 C-153.2356 F1500.000
G1 X-7.7213 Y2.0116 Z-5.9900 A-90.0000 B40.6022 C-165.6368 F1500.000
G1 X-7.8714 Y1.3055 Z-5.9900 A-90.0000 B40.6022 C-165.6368 F1500.000
G1 X-7.9413 Y0.8744 Z-5.9900 A-90.0000 B33.5214 C-171.5471 F1500.000
G1 X-7.9621 Y0.6608 Z-5.9900 A-90.0000 B36.6140 C-180.0000 F1500.000
G1 X-7.9621 Y-0.6608 Z-5.9900 A-90.0000 B36.6140 C-180.0000 F1500.000
G1 X-7.9413 Y-0.8744 Z-5.9900 A-90.0000 B34.9518 C166.5972 F1500.000
G1 X-7.8714 Y-1.3055 Z-5.9900 A-90.0000 B40.6022 C165.6368 F1500.000
G1 X-7.7213 Y-2.0116 Z-5.9900 A-90.0000 B42.4299 C161.2090 F1500.000
G1 X-7.5973 Y-2.4326 Z-5.9900 A-90.0000 B42.4299 C161.2090 F1500.000
G1 X-7.3223 Y-3.1450 Z-5.9900 A-90.0000 B43.0081 C149.1452 F1500.000
G1 X-6.9085 Y-4.0100 Z-5.9900 A-90.0000 B48.4186 C150.2000 F1500.000
G1 X-6.8004 Y-4.2029 Z-5.9900 A-90.0000 B51.6368 C145.8234 F1500.000
G1 X-6.6455 Y-4.4212 Z-5.9900 A-90.0000 B50.5450 C139.2755 F1500.000
G1 X-5.9366 Y-5.3155 Z-5.9900 A-90.0000 B50.5450 C139.2755 F1500.000
G1 X-5.3485 Y-5.9036 Z-5.9900 A-90.0000 B59.7515 C137.3603 F1500.000
G1 X-4.8869 Y-6.3010 Z-5.9900 A-90.0000 B63.8667 C133.7344 F1500.000
G1 X-3.8126 Y-7.0304 Z-5.9900 A-90.0000 B63.4796 C127.6502 F1500.000
G1 X-3.7329 Y-7.0806 Z-5.9900 A-90.0000 B63.4796 C127.6502 F1500.000
G1 X-3.7020 Y-7.0962 Z-5.9900 A-90.0000 B71.7344 C126.8389 F1500.000
G1 X-2.4236 Y-7.6234 Z-5.9900 A-90.0000 B71.7344 C126.8389 F1500.000
G1 X-2.2988 Y-7.6594 Z-5.9900 A-90.0000 B80.7856 C126.6758 F1500.000
G1 X-0.9698 Y-7.9282 Z-5.9900 A-90.0000 B85.5024 C123.5969 F1500.000
G1 X-0.6291 Y-7.9604 Z-5.9900 A-90.0000 B85.5024 C123.5969 F1500.000
G1 X-0.4573 Y-8.1094 Z-5.7900 A-90.0000 B85.5024 C123.5969 F1500.000
G1 X0.4573 Y-8.1094 Z-5.7900 A-90.0000 B90.0000 C126.7008 F1500.000
G1 X1.1189 Y-8.0470 Z-5.7900 A-90.0000 B99.2144 C126.6758 F1500.000
G1 X2.1146 Y-7.8456 Z-5.7900 A-90.0000 B99.2144 C126.6758 F1500.000
G1 X2.5582 Y-7.7177 Z-5.7900 A-90.0000 B108.2656 C126.8389 F1500.000
G1 X3.5784 Y-7.2970 Z-5.7900 A-90.0000 B108.2656 C126.8389 F1500.000
G1 X3.8565 Y-7.1570 Z-5.7900 A-90.0000 B116.5204 C127.6502 F1500.000
G1 X4.5731 Y-6.7054 Z-5.7900 A-90.0000 B116.1333 C133.7344 F1500.000
G1 X5.0290 Y-6.3958 Z-5.7900 A-90.0000 B120.2485 C137.3603 F1500.000
G1 X5.2249 Y-6.2272 Z-5.7900 A-90.0000 B120.2485 C137.3603 F1500.000
G1 X6.0602 Y-5.3919 Z-5.7900 A-90.0000 B125.2644 C135.0000 F1500.000
G1 X6.8328 Y-4.4173 Z-5.7900 A-90.0000 B134.3477 C136.8695 F1500.000
G1 X6.9277 Y-4.2816 Z-5.7900 A-90.0000 B134.3477 C136.8695 F1500.000
G1 X6.9987 Y-4.1562 Z-5.7900 A-90.0000 B136.9919 C149.1452 F1500.000
G1 X7.4459 Y-3.2214 Z-5.7900 A-90.0000 B139.3916 C153.2356 F1500.000
G1 X7.8346 Y-2.2147 Z-5.7900 A-90.0000 B137.5701 C161.2090 F1500.000
G1 X7.8692 Y-2.0971 Z-5.7900 A-90.0000 B139.3978 C165.6368 F1500.000
G1 X7.9111 Y-1.8999 Z-5.7900 A-90.0000 B139.3978 C165.6368 F1500.000
G1 X8.0649 Y-0.9508 Z-5.7900 A-90.0000 B146.4786 C171.5471 F1500.000
G1 X8.1107 Y-0.4804 Z-5.7900 A-90.0000 B143.3860 C180.0000 F1500.000
G1 X8.1107 Y0.4804 Z-5.7900 A-90.0000 B146.4786 C-171.5471 F1500.000
G1 X8.0649 Y0.9508 Z-5.7900 A-90.0000 B145.0482 C-166.5972 F1500.000
G1 X7.9111 Y1.8999 Z-5.7900 A-90.0000 B139.3978 C-165.6368 F1500.000
G1 X7.8692 Y2.0971 Z-5.7900 A-90.0000 B139.3978 C-165.6368 F1500.000
G1 X7.8346 Y2.2147 Z-5.7900 A-90.0000 B137.5701 C-161.2090 F1500.000
G1 X7.4459 Y3.2214 Z-5.7900 A-90.0000 B136.9919 C-149.1452 F1500.000
G1 X6.9987 Y4.1562 Z-5.7900 A-90.0000 B136.9919 C-149.1452 F1500.000
G1 X6.9277 Y4.2816 Z-5.7900 A-90.0000 B137.9106 C-141.1778 F1500.000
G1 X6.8328 Y4.4173 Z-5.7900 A-90.0000 B134.3477 C-136.8695 F1500.000
G1 X6.0602 Y5.3919 Z-5.7900 A-90.0000 B129.4550 C-139.2755 F1500.000
G1 X5.2249 Y6.2272 Z-5.7900 A-90.0000 B120.2485 C-137.3603 F1500.000
G1 X5.0290 Y6.3958 Z-5.7900 A-90.0000 B116.1333 C-133.7344 F1500.000
G1 X4.5731 Y6.7054 Z-5.7900 A-90.0000 B116.1333 C-133.7344 F1500.000
G1 X3.8565 Y7.1570 Z-5.7900 A-90.0000 B116.5204 C-127.6502 F1500.000
G1 X3.5784 Y7.2970 Z-5.7900 A-90.0000 B108.2656 C-126.8389 F1500.000
G1 X2.5582 Y7.7177 Z-5.7900 A-90.0000 B103.4926 C-123.6456 F1500.000
G1 X2.1146 Y7.8456 Z-5.7900 A-90.0000 B99.2144 C-126.6758 F1500.000
G1 X1.1189 Y8.0470 Z-5.7900 A-90.0000 B99.2144 C-126.6758 F1500.000
G1 X0.4573 Y8.1094 Z-5.7900 A-90.0000 B90.0000 C-126.7008 F1500.000
G1 X-0.4573 Y8.1094 Z-5.7900 A-90.0000 B90.0000 C-126.7008 F1500.000
G1 X-1.1189 Y8.0470 Z-5.7900 A-90.0000 B80.7856 C-126.6758 F1500.000
G1 X-2.1146 Y7.8456 Z-5.7900 A-90.0000 B80.7856 C-126.6758 F1500.000
G1 X-2.5582 Y7.7177 Z-5.7900 A-90.0000 B71.7344 C-126.8389 F1500.000
G1 X-3.5784 Y7.2970 Z-5.7900 A-90.0000 B71.7344 C-126.8389 F1500.000
G1 X-3.8565 Y7.1570 Z-5.7900 A-90.0000 B63.4796 C-127.6502 F1500.000
G1 X-4.5731 Y6.7054 Z-5.7900 A-90.0000 B63.8667 C-133.7344 F1500.000
G1 X-5.0290 Y6.3958 Z-5.7900 A-90.0000 B63.8667 C-133.7344 F1500.000
G1 X-5.2249 Y6.2272 Z-5.7900 A-90.0000 B54.7356 C-135.0000 F1500.000
G1 X-6.0602 Y5.3919 Z-5.7900 A-90.0000 B54.7356 C-135.0000 F1500.000
G1 X-6.8328 Y4.4173 Z-5.7900 A-90.0000 B50.5450 C-139.2755 F1500.000
G1 X-6.9277 Y4.2816 Z-5.7900 A-90.0000 B42.0894 C-141.1778 F1500.000
G1 X-6.9987 Y4.1562 Z-5.7900 A-90.0000 B43.0081 C-149.1452 F1500.000
G1 X-7.4459 Y3.2214 Z-5.7900 A-90.0000 B43.0081 C-149.1452 F1500.000
G1 X-7.8346 Y2.2147 Z-5.7900 A-90.0000 B40.6084 C-153.2356 F1500.000
G1 X-7.8692 Y2.0971 Z-5.7900 A-90.0000 B40.6022 C-165.6368 F1500.000
G1 X-7.9111 Y1.8999 Z-5.7900 A-90.0000 B40.6022 C-165.6368 F1500.000
G1 X-8.0649 Y0.9508 Z-5.7900 A-90.0000 B33.5214 C-171.5471 F1500.000
G1 X-8.1107 Y0.4804 Z-5.7900 A-90.0000 B36.6140 C-180.0000 F1500.000
G1 X-8.1107 Y-0.4804 Z-5.7900 A-90.0000 B33.5214 C171.5471 F1500.000
G1 X-8.0649 Y-0.9508 Z-5.7900 A-90.0000 B34.9518 C166.5972 F1500.000
G1 X-7.9111 Y-1.8999 Z-5.7900 A-90.0000 B40.6022 C165.6368 F1500.000
G1 X-7.8692 Y-2.0971 Z-5.7900 A-90.0000 B42.4299 C161.2090 F1500.000
G1 X-7.8346 Y-2.2147 Z-5.7900 A-90.0000 B42.4299 C161.2090 F1500.000
G1 X-7.4459 Y-3.2214 Z-5.7900 A-90.0000 B43.0081 C149.1452 F1500.000
G1 X-6.9987 Y-4.1562 Z-5.7900 A-90.0000 B43.0081 C149.1452 F1500.000
G1 X-6.9277 Y-4.2816 Z-5.7900 A-90.0000 B45.6523 C136.8695 F1500.000
G1 X-6.8328 Y-4.4173 Z-5.7900 A-90.0000 B50.5450 C139.2755 F1500.000
G1 X-6.0602 Y-5.3919 Z-5.7900 A-90.0000 B50.5450 C139.2755 F1500.000
G1 X-5.2249 Y-6.2272 Z-5.7900 A-90.0000 B54.7356 C135.0000 F1500.000
G1 X-5.0290 Y-6.3958 Z-5.7900 A-90.0000 B63.8667 C133.7344 F1500.000
G1 X-4.5731 Y-6.7054 Z-5.7900 A-90.0000 B63.4796 C127.6502 F1500.000
G1 X-3.8565 Y-7.1570 Z-5.7900 A-90.0000 B63.4796 C127.6502 F1500.000
G1 X-3.5784 Y-7.2970 Z-5.7900 A-90.0000 B71.7344 C126.8389 F1500.000
G1 X-2.5582 Y-7.7177 Z-5.7900 A-90.0000 B71.7344 C126.8389 F1500.000
G1 X-2.1146 Y-7.8456 Z-5.7900 A-90.0000 B80.7856 C126.6758 F1500.000
G1 X-1.1189 Y-8.0470 Z-5.7900 A-90.0000 B85.5024 C123.5969 F1500.000
G1 X-0.4573 Y-8.1094 Z-5.7900 A-90.0000 B85.5024 C123.5969 F1500.000
G1 X-0.2856 Y-8.2585 Z-5.5900 A-90.0000 B85.5024 C123.5969 F1500.000
G1 X0.2856 Y-8.2585 Z-5.5900 A-90.0000 B94.4976 C123.5969 F1500.000
G1 X1.2680 Y-8.1658 Z-5.5900 A-90.0000 B99.2144 C126.6758 F1500.000
G1 X1.9304 Y-8.0318 Z-5.5900 A-90.0000 B99.2144 C126.6758 F1500.000
G1 X2.6929 Y-7.8120 Z-5.5900 A-90.0000 B108.2656 C126.8389 F1500.000
G1 X3.4548 Y-7.4978 Z-5.5900 A-90.0000 B112.4721 C124.7219 F1500.000
G1 X3.9802 Y-7.2334 Z-5.5900 A-90.0000 B116.5204 C127.6502 F1500.000
G1 X5.1012 Y-6.5268 Z-5.5900 A-90.0000 B121.4589 C124.9693 F1500.000
G1 X5.1619 Y-6.4815 Z-5.5900 A-90.0000 B121.4589 C124.9693 F1500.000
G1 X5.2713 Y-6.3808 Z-5.5900 A-90.0000 B125.2644 C135.0000 F1500.000
G1 X6.1838 Y-5.4683 Z-5.5900 A-90.0000 B129.4550 C139.2755 F1500.000
G1 X6.7209 Y-4.7907 Z-5.5900 A-90.0000 B134.3477 C136.8695 F1500.000
G1 X7.0320 Y-4.3460 Z-5.5900 A-90.0000 B134.3477 C136.8695 F1500.000
G1 X7.2645 Y-3.9352 Z-5.5900 A-90.0000 B136.9919 C149.1452 F1500.000
G1 X7.5695 Y-3.2977 Z-5.5900 A-90.0000 B136.9919 C149.1452 F1500.000
G1 X7.9061 Y-2.4261 Z-5.5900 A-90.0000 B139.3916 C153.2356 F1500.000
G1 X7.9889 Y-2.1720 Z-5.5900 A-90.0000 B144.9483 C152.2850 F1500.000
G1 X8.0285 Y-2.0148 Z-5.5900 A-90.0000 B145.0482 C166.5972 F1500.000
G1 X8.1885 Y-1.0272 Z-5.5900 A-90.0000 B146.4786 C171.5471 F1500.000
G1 X8.2593 Y-0.3000 Z-5.5900 A-90.0000 B143.3860 C180.0000 F1500.000
G1 X8.2593 Y0.3000 Z-5.5900 A-90.0000 B143.3860 C180.0000 F1500.000
G1 X8.1885 Y1.0272 Z-5.5900 A-90.0000 B146.4786 C-171.5471 F1500.000
G1 X8.0285 Y2.0148 Z-5.5900 A-90.0000 B145.0482 C-166.5972 F1500.000
G1 X7.9889 Y2.1720 Z-5.5900 A-90.0000 B147.1177 C-157.1046 F1500.000
G1 X7.9061 Y2.4261 Z-5.5900 A-90.0000 B139.3916 C-153.2356 F1500.000
G1 X7.5695 Y3.2977 Z-5.5900 A-90.0000 B139.3916 C-153.2356 F1500.000
G1 X7.2645 Y3.9352 Z-5.5900 A-90.0000 B136.9919 C-149.1452 F1500.000
G1 X7.0320 Y4.3460 Z-5.5900 A-90.0000 B137.9106 C-141.1778 F1500.000
G1 X6.7209 Y4.7907 Z-5.5900 A-90.0000 B134.3477 C-136.8695 F1500.000
G1 X6.1838 Y5.4683 Z-5.5900 A-90.0000 B125.2644 C-135.0000 F1500.000
G1 X5.2713 Y6.3808 Z-5.5900 A-90.0000 B125.2644 C-135.0000 F1500.000
G1 X5.1619 Y6.4815 Z-5.5900 A-90.0000 B125.8142 C-128.4046 F1500.000
G1 X5.1012 Y6.5268 Z-5.5900 A-90.0000 B116.5204 C-127.6502 F1500.000
G1 X3.9802 Y7.2334 Z-5.5900 A-90.0000 B116.5204 C-127.6502 F1500.000
G1 X3.4548 Y7.4978 Z-5.5900 A-90.0000 B112.4721 C-124.7219 F1500.000
G1 X2.6929 Y7.8120 Z-5.5900 A-90.0000 B103.4926 C-123.6456 F1500.000
G1 X1.9304 Y8.0318 Z-5.5900 A-90.0000 B103.4926 C-123.6456 F1500.000
G1 X1.2680 Y8.1658 Z-5.5900 A-90.0000 B99.2144 C-126.6758 F1500.000
G1 X0.2856 Y8.2585 Z-5.5900 A-90.0000 B90.0000 C-126.7008 F1500.000
G1 X-0.2856 Y8.2585 Z-5.5900 A-90.0000 B85.5024 C-123.5969 F1500.000
G1 X-1.2680 Y8.1658 Z-5.5900 A-90.0000 B80.7856 C-126.6758 F1500.000
G1 X-1.9304 Y8.0318 Z-5.5900 A-90.0000 B76.5074 C-123.6456 F1500.000
G1 X-2.6929 Y7.8120 Z-5.5900 A-90.0000 B71.7344 C-126.8389 F1500.000
G1 X-3.4548 Y7.4978 Z-5.5900 A-90.0000 B67.5279 C-124.7219 F1500.000
G1 X-3.9802 Y7.2334 Z-5.5900 A-90.0000 B63.4796 C-127.6502 F1500.000
G1 X-5.1012 Y6.5268 Z-5.5900 A-90.0000 B63.4796 C-127.6502 F1500.000
G1 X-5.1619 Y6.4815 Z-5.5900 A-90.0000 B58.5411 C-124.9693 F1500.000
G1 X-5.2713 Y6.3808 Z-5.5900 A-90.0000 B54.7356 C-135.0000 F1500.000
G1 X-6.1838 Y5.4683 Z-5.5900 A-90.0000 B54.7356 C-135.0000 F1500.000
G1 X-6.7209 Y4.7907 Z-5.5900 A-90.0000 B50.5450 C-139.2755 F1500.000
G1 X-7.0320 Y4.3460 Z-5.5900 A-90.0000 B42.0894 C-141.1778 F1500.000
G1 X-7.2645 Y3.9352 Z-5.5900 A-90.0000 B43.0081 C-149.1452 F1500.000
G1 X-7.5695 Y3.2977 Z-5.5900 A-90.0000 B40.6084 C-153.2356 F1500.000
G1 X-7.9061 Y2.4261 Z-5.5900 A-90.0000 B40.6084 C-153.2356 F1500.000
G1 X-7.9889 Y2.1720 Z-5.5900 A-90.0000 B35.0517 C-152.2850 F1500.000
G1 X-8.0285 Y2.0148 Z-5.5900 A-90.0000 B34.9518 C-166.5972 F1500.000
G1 X-8.1885 Y1.0272 Z-5.5900 A-90.0000 B33.5214 C-171.5471 F1500.000
G1 X-8.2593 Y0.3000 Z-5.5900 A-90.0000 B36.6140 C-180.0000 F1500.000
G1 X-8.2593 Y-0.3000 Z-5.5900 A-90.0000 B36.6140 C-180.0000 F1500.000
G1 X-8.1885 Y-1.0272 Z-5.5900 A-90.0000 B33.5214 C171.5471 F1500.000
G1 X-8.0285 Y-2.0148 Z-5.5900 A-90.0000 B34.9518 C166.5972 F1500.000
G1 X-7.9889 Y-2.1720 Z-5.5900 A-90.0000 B32.8823 C157.1046 F1500.000
G1 X-7.9061 Y-2.4261 Z-5.5900 A-90.0000 B40.6084 C153.2356 F1500.000
G1 X-7.5695 Y-3.2977 Z-5.5900 A-90.0000 B40.6084 C153.2356 F1500.000
G1 X-7.2645 Y-3.9352 Z-5.5900 A-90.0000 B43.0081 C149.1452 F1500.000
G1 X-7.0320 Y-4.3460 Z-5.5900 A-90.0000 B45.6523 C136.8695 F1500.000
G1 X-6.7209 Y-4.7907 Z-5.5900 A-90.0000 B45.6523 C136.8695 F1500.000
G1 X-6.1838 Y-5.4683 Z-5.5900 A-90.0000 B50.5450 C139.2755 F1500.000
G1 X-5.2713 Y-6.3808 Z-5.5900 A-90.0000 B54.7356 C135.0000 F1500.000
G1 X-5.1619 Y-6.4815 Z-5.5900 A-90.0000 B54.1858 C128.4046 F1500.000
G1 X-5.1012 Y-6.5268 Z-5.5900 A-90.0000 B63.4796 C127.6502 F1500.000
G1 X-3.9802 Y-7.2334 Z-5.5900 A-90.0000 B63.4796 C127.6502 F1500.000
G1 X-3.4548 Y-7.4978 Z-5.5900 A-90.0000 B71.7344 C126.8389 F1500.000
G1 X-2.6929 Y-7.8120 Z-5.5900 A-90.0000 B71.7344 C126.8389 F1500.000
G1 X-1.9304 Y-8.0318 Z-5.5900 A-90.0000 B80.7856 C126.6758 F1500.000
G1 X-1.2680 Y-8.1658 Z-5.5900 A-90.0000 B85.5024 C123.5969 F1500.000
G1 X-0.2856 Y-8.2585 Z-5.5900 A-90.0000 B85.5024 C123.5969 F1500.000
G1 X-0.1139 Y-8.4076 Z-5.3900 A-90.0000 B85.5024 C123.5969 F1500.000
G1 X0.1139 Y-8.4076 Z-5.3900 A-90.0000 B94.4976 C123.5969 F1500.000
G1 X1.4171 Y-8.2845 Z-5.3900 A-90.0000 B99.2144 C126.6758 F1500.000
G1 X1.7462 Y-8.2180 Z-5.3900 A-90.0000 B103.4926 C123.6456 F1500.000
G1 X2.8276 Y-7.9063 Z-5.3900 A-90.0000 B108.2656 C126.8389 F1500.000
G1 X3.3312 Y-7.6986 Z-5.3900 A-90.0000 B112.4721 C124.7219 F1500.000
G1 X4.1038 Y-7.3098 Z-5.3900 A-90.0000 B116.5204 C127.6502 F1500.000
G1 X4.9772 Y-6.7593 Z-5.3900 A-90.0000 B121.4589 C124.9693 F1500.000
G1 X5.2690 Y-6.5414 Z-5.3900 A-90.0000 B121.4589 C124.9693 F1500.000
G1 X5.7949 Y-6.0572 Z-5.3900 A-90.0000 B125.2644 C135.0000 F1500.000
G1 X6.3074 Y-5.5447 Z-5.3900 A-90.0000 B125.2644 C135.0000 F1500.000
G1 X6.6091 Y-5.1641 Z-5.3900 A-90.0000 B134.3477 C136.8695 F1500.000
G1 X7.1362 Y-4.4104 Z-5.3900 A-90.0000 B134.3477 C136.8695 F1500.000
G1 X7.5304 Y-3.7143 Z-5.3900 A-90.0000 B136.9919 C149.1452 F1500.000
G1 X7.6931 Y-3.3741 Z-5.3900 A-90.0000 B136.9919 C149.1452 F1500.000
G1 X7.8727 Y-2.9091 Z-5.3900 A-90.0000 B139.3916 C153.2356 F1500.000
G1 X8.0909 Y-2.2403 Z-5.3900 A-90.0000 B147.1177 C157.1046 F1500.000
G1 X8.1950 Y-1.8262 Z-5.3900 A-90.0000 B145.0482 C166.5972 F1500.000
G1 X8.3121 Y-1.1036 Z-5.3900 A-90.0000 B145.0482 C166.5972 F1500.000
G1 X8.4079 Y-0.1197 Z-5.3900 A-90.0000 B146.4786 C171.5471 F1500.000
G1 X8.4079 Y0.1197 Z-5.3900 A-90.0000 B146.4786 C-171.5471 F1500.000
G1 X8.3121 Y1.1036 Z-5.3900 A-90.0000 B145.0482 C-166.5972 F1500.000
G1 X8.1950 Y1.8262 Z-5.3900 A-90.0000 B145.0482 C-166.5972 F1500.000
G1 X8.0909 Y2.2403 Z-5.3900 A-90.0000 B144.9483 C-152.2850 F1500.000
G1 X7.8727 Y2.9091 Z-5.3900 A-90.0000 B139.3916 C-153.2356 F1500.000
G1 X7.6931 Y3.3741 Z-5.3900 A-90.0000 B139.3916 C-153.2356 F1500.000
G1 X7.5304 Y3.7143 Z-5.3900 A-90.0000 B136.9919 C-149.1452 F1500.000
G1 X7.1362 Y4.4104 Z-5.3900 A-90.0000 B137.9106 C-141.1778 F1500.000
G1 X6.6091 Y5.1641 Z-5.3900 A-90.0000 B134.3477 C-136.8695 F1500.000
G1 X6.3074 Y5.5447 Z-5.3900 A-90.0000 B125.2644 C-135.0000 F1500.000
G1 X5.7949 Y6.0572 Z-5.3900 A-90.0000 B125.2644 C-135.0000 F1500.000
G1 X5.2690 Y6.5414 Z-5.3900 A-90.0000 B125.8142 C-128.4046 F1500.000
G1 X4.9772 Y6.7593 Z-5.3900 A-90.0000 B116.5204 C-127.6502 F1500.000
G1 X4.1038 Y7.3098 Z-5.3900 A-90.0000 B116.5204 C-127.6502 F1500.000
G1 X3.3312 Y7.6986 Z-5.3900 A-90.0000 B108.2656 C-126.8389 F1500.000
G1 X2.8276 Y7.9063 Z-5.3900 A-90.0000 B108.2656 C-126.8389 F1500.000
G1 X1.7462 Y8.2180 Z-5.3900 A-90.0000 B99.2144 C-126.6758 F1500.000
G1 X1.4171 Y8.2845 Z-5.3900 A-90.0000 B99.2144 C-126.6758 F1500.000
G1 X0.1139 Y8.4076 Z-5.3900 A-90.0000 B90.0000 C-126.7008 F1500.000
G1 X-0.1139 Y8.4076 Z-5.3900 A-90.0000 B90.0000 C-126.7008 F1500.000
G1 X-1.4171 Y8.2845 Z-5.3900 A-90.0000 B85.5024 C-123.5969 F1500.000
G1 X-1.7462 Y8.2180 Z-5.3900 A-90.0000 B80.7856 C-126.6758 F1500.000
G1 X-2.8276 Y7.9063 Z-5.3900 A-90.0000 B76.5074 C-123.6456 F1500.000
G1 X-3.3312 Y7.6986 Z-5.3900 A-90.0000 B71.7344 C-126.8389 F1500.000
G1 X-4.1038 Y7.3098 Z-5.3900 A-90.0000 B63.4796 C-127.6502 F1500.000
G1 X-4.9772 Y6.7593 Z-5.3900 A-90.0000 B63.4796 C-127.6502 F1500.000
G1 X-5.2690 Y6.5414 Z-5.3900 A-90.0000 B58.5411 C-124.9693 F1500.000
G1 X-5.7949 Y6.0572 Z-5.3900 A-90.0000 B54.1858 C-128.4046 F1500.000
G1 X-6.3074 Y5.5447 Z-5.3900 A-90.0000 B50.5450 C-139.2755 F1500.000
G1 X-6.6091 Y5.1641 Z-5.3900 A-90.0000 B50.5450 C-139.2755 F1500.000
G1 X-7.1362 Y4.4104 Z-5.3900 A-90.0000 B42.0894 C-141.1778 F1500.000
G1 X-7.5304 Y3.7143 Z-5.3900 A-90.0000 B43.0081 C-149.1452 F1500.000
G1 X-7.6931 Y3.3741 Z-5.3900 A-90.0000 B40.6084 C-153.2356 F1500.000
G1 X-7.8727 Y2.9091 Z-5.3900 A-90.0000 B40.6084 C-153.2356 F1500.000
G1 X-8.0909 Y2.2403 Z-5.3900 A-90.0000 B32.8823 C-157.1046 F1500.000
G1 X-8.1950 Y1.8262 Z-5.3900 A-90.0000 B34.9518 C-166.5972 F1500.000
G1 X-8.3121 Y1.1036 Z-5.3900 A-90.0000 B33.5214 C-171.5471 F1500.000
G1 X-8.4079 Y0.1197 Z-5.3900 A-90.0000 B33.5214 C-171.5471 F1500.000
G1 X-8.4079 Y-0.1197 Z-5.3900 A-90.0000 B33.5214 C171.5471 F1500.000
G1 X-8.3121 Y-1.1036 Z-5.3900 A-90.0000 B33.5214 C171.5471 F1500.000
G1 X-8.1950 Y-1.8262 Z-5.3900 A-90.0000 B32.8823 C157.1046 F1500.000
G1 X-8.0909 Y-2.2403 Z-5.3900 A-90.0000 B35.0517 C152.2850 F1500.000
G1 X-7.8727 Y-2.9091 Z-5.3900 A-90.0000 B40.6084 C153.2356 F1500.000
G1 X-7.6931 Y-3.3741 Z-5.3900 A-90.0000 B40.6084 C153.2356 F1500.000
G1 X-7.5304 Y-3.7143 Z-5.3900 A-90.0000 B43.0081 C149.1452 F1500.000
G1 X-7.1362 Y-4.4104 Z-5.3900 A-90.0000 B45.6523 C136.8695 F1500.000
G1 X-6.6091 Y-5.1641 Z-5.3900 A-90.0000 B50.5450 C139.2755 F1500.000
G1 X-6.3074 Y-5.5447 Z-5.3900 A-90.0000 B54.7356 C135.0000 F1500.000
G1 X-5.7949 Y-6.0572 Z-5.3900 A-90.0000 B54.7356 C135.0000 F1500.000
G1 X-5.2690 Y-6.5414 Z-5.3900 A-90.0000 B54.1858 C128.4046 F1500.000
G1 X-4.9772 Y-6.7593 Z-5.3900 A-90.0000 B63.4796 C127.6502 F1500.000
G1 X-4.1038 Y-7.3098 Z-5.3900 A-90.0000 B63.4796 C127.6502 F1500.000
G1 X-3.3312 Y-7.6986 Z-5.3900 A-90.0000 B71.7344 C126.8389 F1500.000
G1 X-2.8276 Y-7.9063 Z-5.3900 A-90.0000 B71.7344 C126.8389 F1500.000
G1 X-1.7462 Y-8.2180 Z-5.3900 A-90.0000 B80.7856 C126.6758 F1500.000
G1 X-1.4171 Y-8.2845 Z-5.3900 A-90.0000 B85.5024 C123.5969 F1500.000
G1 X-0.1139 Y-8.4076 Z-5.3900 A-90.0000 B85.5024 C123.5969 F1500.000
G1 X-0.0439 Y-8.5398 Z-5.1900 A-90.0000 B90.0000 C116.2990 F1500.000
G1 X0.0439 Y-8.5398 Z-5.1900 A-90.0000 B90.0000 C116.2990 F1500.000
G1 X1.5627 Y-8.4034 Z-5.1900 A-90.0000 B99.3160 C116.3398 F1500.000
G1 X1.5659 Y-8.4028 Z-5.1900 A-90.0000 B99.3160 C116.3398 F1500.000
G1 X1.5848 Y-8.3976 Z-5.1900 A-90.0000 B103.4839 C118.8626 F1500.000
G1 X2.9622 Y-8.0006 Z-5.1900 A-90.0000 B103.4926 C123.6456 F1500.000
G1 X3.2076 Y-7.8994 Z-5.1900 A-90.0000 B112.4721 C124.7219 F1500.000
G1 X4.2274 Y-7.3862 Z-5.1900 A-90.0000 B112.4721 C124.7219 F1500.000
G1 X4.8533 Y-6.9917 Z-5.1900 A-90.0000 B121.4589 C124.9693 F1500.000
G1 X5.3761 Y-6.6013 Z-5.1900 A-90.0000 B121.4589 C124.9693 F1500.000
G1 X6.3185 Y-5.7335 Z-5.1900 A-90.0000 B125.2644 C135.0000 F1500.000
G1 X6.4310 Y-5.6211 Z-5.1900 A-90.0000 B125.2644 C135.0000 F1500.000
G1 X6.4972 Y-5.5375 Z-5.1900 A-90.0000 B134.3477 C136.8695 F1500.000
G1 X7.2405 Y-4.4749 Z-5.1900 A-90.0000 B134.3477 C136.8695 F1500.000
G1 X7.7963 Y-3.4933 Z-5.1900 A-90.0000 B136.9919 C149.1452 F1500.000
G1 X7.8167 Y-3.4505 Z-5.1900 A-90.0000 B136.9919 C149.1452 F1500.000
G1 X7.8393 Y-3.3920 Z-5.1900 A-90.0000 B139.3916 C153.2356 F1500.000
G1 X8.1928 Y-2.3085 Z-5.1900 A-90.0000 B144.9483 C152.2850 F1500.000
G1 X8.3616 Y-1.6377 Z-5.1900 A-90.0000 B145.0482 C166.5972 F1500.000
G1 X8.4357 Y-1.1800 Z-5.1900 A-90.0000 B145.0482 C166.5972 F1500.000
G1 X8.5298 Y-0.2139 Z-5.1900 A-90.0000 B152.1104 C173.8428 F1500.000
G1 X8.5419 Y0.0000 Z-5.1900 A-90.0000 B152.1104 C173.8428 F1500.000
G1 X8.5298 Y0.2139 Z-5.1900 A-90.0000 B146.4786 C-171.5471 F1500.000
G1 X8.4357 Y1.1800 Z-5.1900 A-90.0000 B145.0482 C-166.5972 F1500.000
G1 X8.3616 Y1.6377 Z-5.1900 A-90.0000 B145.0482 C-166.5972 F1500.000
G1 X8.1928 Y2.3085 Z-5.1900 A-90.0000 B147.1177 C-157.1046 F1500.000
G1 X7.8393 Y3.3920 Z-5.1900 A-90.0000 B139.3916 C-153.2356 F1500.000
G1 X7.8167 Y3.4505 Z-5.1900 A-90.0000 B139.3916 C-153.2356 F1500.000
G1 X7.7963 Y3.4933 Z-5.1900 A-90.0000 B136.9919 C-149.1452 F1500.000
G1 X7.2405 Y4.4749 Z-5.1900 A-90.0000 B137.9106 C-141.1778 F1500.000
G1 X6.4972 Y5.5375 Z-5.1900 A-90.0000 B134.3477 C-136.8695 F1500.000
G1 X6.4310 Y5.6211 Z-5.1900 A-90.0000 B125.2644 C-135.0000 F1500.000
G1 X6.3185 Y5.7335 Z-5.1900 A-90.0000 B125.2644 C-135.0000 F1500.000
G1 X5.3761 Y6.6013 Z-5.1900 A-90.0000 B125.8142 C-128.4046 F1500.000
G1 X4.8533 Y6.9917 Z-5.1900 A-90.0000 B121.4589 C-124.9693 F1500.000
G1 X4.2274 Y7.3862 Z-5.1900 A-90.0000 B116.5204 C-127.6502 F1500.000
G1 X3.2076 Y7.8994 Z-5.1900 A-90.0000 B108.2656 C-126.8389 F1500.000
G1 X2.9622 Y8.0006 Z-5.1900 A-90.0000 B103.4926 C-123.6456 F1500.000
G1 X1.5848 Y8.3976 Z-5.1900 A-90.0000 B103.4926 C-123.6456 F1500.000
G1 X1.5659 Y8.4028 Z-5.1900 A-90.0000 B103.4839 C-118.8626 F1500.000
G1 X1.5627 Y8.4034 Z-5.1900 A-90.0000 B94.4947 C-118.9355 F1500.000
G1 X0.0439 Y8.5398 Z-5.1900 A-90.0000 B94.4947 C-118.9355 F1500.000
G1 X-0.0439 Y8.5398 Z-5.1900 A-90.0000 B90.0000 C-116.2990 F1500.000
G1 X-1.5627 Y8.4034 Z-5.1900 A-90.0000 B85.5053 C-118.9355 F1500.000
G1 X-1.5659 Y8.4028 Z-5.1900 A-90.0000 B80.6840 C-116.3398 F1500.000
G1 X-1.5848 Y8.3976 Z-5.1900 A-90.0000 B76.5074 C-123.6456 F1500.000
G1 X-2.9622 Y8.0006 Z-5.1900 A-90.0000 B76.5074 C-123.6456 F1500.000
G1 X-3.2076 Y7.8994 Z-5.1900 A-90.0000 B71.7344 C-126.8389 F1500.000
G1 X-4.2274 Y7.3862 Z-5.1900 A-90.0000 B63.4796 C-127.6502 F1500.000
G1 X-4.8533 Y6.9917 Z-5.1900 A-90.0000 B63.4796 C-127.6502 F1500.000
G1 X-5.3761 Y6.6013 Z-5.1900 A-90.0000 B58.5411 C-124.9693 F1500.000
G1 X-6.3185 Y5.7335 Z-5.1900 A-90.0000 B54.7356 C-135.0000 F1500.000
G1 X-6.4310 Y5.6211 Z-5.1900 A-90.0000 B50.5450 C-139.2755 F1500.000
G1 X-6.4972 Y5.5375 Z-5.1900 A-90.0000 B50.5450 C-139.2755 F1500.000
G1 X-7.2405 Y4.4749 Z-5.1900 A-90.0000 B42.0894 C-141.1778 F1500.000
G1 X-7.7963 Y3.4933 Z-5.1900 A-90.0000 B43.0081 C-149.1452 F1500.000
G1 X-7.8167 Y3.4505 Z-5.1900 A-90.0000 B40.6084 C-153.2356 F1500.000
G1 X-7.8393 Y3.3920 Z-5.1900 A-90.0000 B40.6084 C-153.2356 F1500.000
G1 X-8.1928 Y2.3085 Z-5.1900 A-90.0000 B35.0517 C-152.2850 F1500.000
G1 X-8.3616 Y1.6377 Z-5.1900 A-90.0000 B34.9518 C-166.5972 F1500.000
G1 X-8.4357 Y1.1800 Z-5.1900 A-90.0000 B34.9518 C-166.5972 F1500.000
G1 X-8.5298 Y0.2139 Z-5.1900 A-90.0000 B33.5214 C-171.5471 F1500.000
G1 X-8.5419 Y0.0000 Z-5.1900 A-90.0000 B27.8896 C173.8428 F1500.000
G1 X-8.5298 Y-0.2139 Z-5.1900 A-90.0000 B33.5214 C171.5471 F1500.000
G1 X-8.4357 Y-1.1800 Z-5.1900 A-90.0000 B33.5214 C171.5471 F1500.000
G1 X-8.3616 Y-1.6377 Z-5.1900 A-90.0000 B32.8823 C157.1046 F1500.000
G1 X-8.1928 Y-2.3085 Z-5.1900 A-90.0000 B32.8823 C157.1046 F1500.000
G1 X-7.8393 Y-3.3920 Z-5.1900 A-90.0000 B40.6084 C153.2356 F1500.000
G1 X-7.8167 Y-3.4505 Z-5.1900 A-90.0000 B40.6084 C153.2356 F1500.000
G1 X-7.7963 Y-3.4933 Z-5.1900 A-90.0000 B43.0081 C149.1452 F1500.000
G1 X-7.2405 Y-4.4749 Z-5.1900 A-90.0000 B45.6523 C136.8695 F1500.000
G1 X-6.4972 Y-5.5375 Z-5.1900 A-90.0000 B50.5450 C139.2755 F1500.000
G1 X-6.4310 Y-5.6211 Z-5.1900 A-90.0000 B54.7356 C135.0000 F1500.000
G1 X-6.3185 Y-5.7335 Z-5.1900 A-90.0000 B54.7356 C135.0000 F1500.000
G1 X-5.3761 Y-6.6013 Z-5.1900 A-90.0000 B54.1858 C128.4046 F1500.000
G1 X-4.8533 Y-6.9917 Z-5.1900 A-90.0000 B63.4796 C127.6502 F1500.000
G1 X-4.2274 Y-7.3862 Z-5.1900 A-90.0000 B63.4796 C127.6502 F1500.000
G1 X-3.2076 Y-7.8994 Z-5.1900 A-90.0000 B71.7344 C126.8389 F1500.000
G1 X-2.9622 Y-8.0006 Z-5.1900 A-90.0000 B76.5074 C123.6456 F1500.000
G1 X-1.5848 Y-8.3976 Z-5.1900 A-90.0000 B76.5074 C123.6456 F1500.000
G1 X-1.5659 Y-8.4028 Z-5.1900 A-90.0000 B80.6840 C116.3398 F1500.000
G1 X-1.5627 Y-8.4034 Z-5.1900 A-90.0000 B85.5053 C118.9355 F1500.000
G1 X-0.0439 Y-8.5398 Z-5.1900 A-90.0000 B90.0000 C116.2990 F1500.000
G1 X-0.1745 Y-8.6386 Z-4.9900 A-90.0000 B90.0000 C116.2990 F1500.000
G1 X0.1745 Y-8.6386 Z-4.9900 A-90.0000 B90.0000 C116.2990 F1500.000
G1 X1.4389 Y-8.5250 Z-4.9900 A-90.0000 B99.3160 C116.3398 F1500.000
G1 X1.6895 Y-8.4792 Z-4.9900 A-90.0000 B99.3160 C116.3398 F1500.000
G1 X3.0840 Y-8.0974 Z-4.9900 A-90.0000 B103.4839 C118.8626 F1500.000
G1 X3.0958 Y-8.0932 Z-4.9900 A-90.0000 B112.4873 C119.6883 F1500.000
G1 X3.1361 Y-8.0740 Z-4.9900 A-90.0000 B112.4873 C119.6883 F1500.000
G1 X4.3510 Y-7.4626 Z-4.9900 A-90.0000 B116.5204 C127.6502 F1500.000
G1 X4.7294 Y-7.2241 Z-4.9900 A-90.0000 B121.4589 C124.9693 F1500.000
G1 X5.4833 Y-6.6612 Z-4.9900 A-90.0000 B121.4589 C124.9693 F1500.000
G1 X6.3698 Y-5.8449 Z-4.9900 A-90.0000 B130.4427 C125.3627 F1500.000
G1 X6.5272 Y-5.6803 Z-4.9900 A-90.0000 B135.1083 C129.2472 F1500.000
G1 X6.7353 Y-5.4106 Z-4.9900 A-90.0000 B134.3477 C136.8695 F1500.000
G1 X7.3447 Y-4.5393 Z-4.9900 A-90.0000 B137.9106 C141.1778 F1500.000
G1 X7.7642 Y-3.7985 Z-4.9900 A-90.0000 B137.9106 C141.1778 F1500.000
G1 X7.9079 Y-3.5070 Z-4.9900 A-90.0000 B146.0454 C142.8301 F1500.000
G1 X7.9995 Y-3.2819 Z-4.9900 A-90.0000 B144.9483 C152.2850 F1500.000
G1 X8.2948 Y-2.3768 Z-4.9900 A-90.0000 B144.9483 C152.2850 F1500.000
G1 X8.5281 Y-1.4492 Z-4.9900 A-90.0000 B145.0482 C166.5972 F1500.000
G1 X8.5593 Y-1.2564 Z-4.9900 A-90.0000 B145.0482 C166.5972 F1500.000
G1 X8.5989 Y-0.8494 Z-4.9900 A-90.0000 B146.4786 C171.5471 F1500.000
G1 X8.6472 Y0.0000 Z-4.9900 A-90.0000 B152.1104 C173.8428 F1500.000
G1 X8.5989 Y0.8494 Z-4.9900 A-90.0000 B152.1104 C-173.8428 F1500.000
G1 X8.5593 Y1.2564 Z-4.9900 A-90.0000 B146.4786 C-171.5471 F1500.000
G1 X8.5281 Y1.4492 Z-4.9900 A-90.0000 B145.0482 C-166.5972 F1500.000
G1 X8.2948 Y2.3768 Z-4.9900 A-90.0000 B147.1177 C-157.1046 F1500.000
G1 X7.9995 Y3.2819 Z-4.9900 A-90.0000 B144.9483 C-152.2850 F1500.000
G1 X7.9079 Y3.5070 Z-4.9900 A-90.0000 B143.2914 C-138.6155 F1500.000
G1 X7.7642 Y3.7985 Z-4.9900 A-90.0000 B137.9106 C-141.1778 F1500.000
G1 X7.3447 Y4.5393 Z-4.9900 A-90.0000 B134.3477 C-136.8695 F1500.000
G1 X6.7353 Y5.4106 Z-4.9900 A-90.0000 B134.3477 C-136.8695 F1500.000
G1 X6.5272 Y5.6803 Z-4.9900 A-90.0000 B135.1083 C-129.2472 F1500.000
G1 X6.3698 Y5.8449 Z-4.9900 A-90.0000 B130.4427 C-125.3627 F1500.000
G1 X5.4833 Y6.6612 Z-4.9900 A-90.0000 B125.8142 C-128.4046 F1500.000
G1 X4.7294 Y7.2241 Z-4.9900 A-90.0000 B116.5204 C-127.6502 F1500.000
G1 X4.3510 Y7.4626 Z-4.9900 A-90.0000 B112.4721 C-124.7219 F1500.000
G1 X3.1361 Y8.0740 Z-4.9900 A-90.0000 B112.4721 C-124.7219 F1500.000
G1 X3.0958 Y8.0932 Z-4.9900 A-90.0000 B112.4873 C-119.6883 F1500.000
G1 X3.0840 Y8.0974 Z-4.9900 A-90.0000 B103.4839 C-118.8626 F1500.000
G1 X1.6895 Y8.4792 Z-4.9900 A-90.0000 B103.4839 C-118.8626 F1500.000
G1 X1.4389 Y8.5250 Z-4.9900 A-90.0000 B99.3160 C-116.3398 F1500.000
G1 X0.1745 Y8.6386 Z-4.9900 A-90.0000 B94.4947 C-118.9355 F1500.000
